;This Gcode has been generated specifically for the LulzBot Mini
;Basic settings: Layer height: 0.38 Walls: 1 Fill: 20
;Filament Diameter: 2.85
;Nozzle Size: 0.5
G21                          ; metric values
G90                          ; absolute positioning
M82                          ; set extruder to absolute mode
M107                         ; start with the fan off
G92 E0                       ; set extruder position to 0
M140 S60; get bed heating up
G28                          ; home all
M109 S140                    ; set to cleaning temp and wait
G1 Z150 E-30 F75             ; suck up XXmm of filament
M109 S140                    ; heat up rest of way
G1 X45 Y174 F11520           ; move behind scraper
G1 Z0  F1200                 ; CRITICAL: set Z to height of top of scraper
G1 X45 Y174 Z-.5 F4000       ; wiping ; plunge into wipe pad
G1 X55 Y172 Z-.5 F4000       ; wiping
G1 X45 Y174 Z0 F4000         ; wiping
G1 X55 Y172 F4000            ; wiping
G1 X45 Y174 F4000            ; wiping
G1 X55 Y172 F4000            ; wiping
G1 X45 Y174 F4000            ; wiping
G1 X55 Y172 F4000            ; wiping
G1 X60 Y174 F4000            ; wiping
G1 X80 Y172 F4000            ; wiping
G1 X60 Y174 F4000            ; wiping
G1 X80 Y172 F4000            ; wiping
G1 X60 Y174 F4000            ; wiping
G1 X90 Y172 F4000            ; wiping
G1 X80 Y174 F4000            ; wiping
G1 X100 Y172 F4000           ; wiping
G1 X80 Y174 F4000            ; wiping
G1 X100 Y172 F4000           ; wiping
G1 X80 Y174 F4000            ; wiping
G1 X100 Y172 F4000           ; wiping
G1 X110 Y174 F4000           ; wiping
G1 X100 Y172 F4000           ; wiping
G1 X110 Y174 F4000           ; wiping
G1 X100 Y172 F4000           ; wiping
G1 X110 Y174 F4000           ; wiping
G1 X115 Y172 Z-0.5 F1000     ; wipe slower and bury noz in cleanish area
G1 Z10                       ; raise z
G28 X0 Y0                    ; home x and y
M109 S140                    ; set to probing temp
M204 S300                    ; Set probing acceleration
G29                          ; Probe
M204 S2000                   ; Restore standard acceleration
G1 X5 Y15 Z10 F5000          ; get out the way
G4 S1                        ; pause
M400                         ; clear buffer
M109 S205    ; set extruder temp and wait
G4 S15                       ; wait for bed to temp up
G1 Z2 E0 F75                 ; extrude filament back into nozzle
M140 S60; get bed temping up during first layer

;Layer count: 9
;LAYER:0
M107
G0 F10500 X26.896 Y8.177 Z0.425
;TYPE:SKIRT
G1 F900 X27.092 Y7.572 E0.02648
G1 X27.506 Y6.708 E0.06637
G1 X27.908 Y6.092 E0.09700
G1 X28.591 Y5.306 E0.14036
G1 X29.493 Y4.581 E0.18854
G1 X30.443 Y4.070 E0.23346
G1 X31.071 Y3.840 E0.26130
G1 X31.604 Y3.696 E0.28429
G1 X32.136 Y3.599 E0.30681
G1 X32.701 Y3.548 E0.33043
G1 X66.296 Y3.545 E1.72926
G1 X66.296 Y4.777 E1.78056
G1 X96.188 Y4.777 E3.02520
G1 X96.188 Y2.738 E3.11010
G1 X129.574 Y2.738 E4.50022
G1 X130.065 Y2.760 E4.52069
G1 X130.627 Y2.836 E4.54430
G1 X131.179 Y2.962 E4.56788
G1 X131.784 Y3.158 E4.59436
G1 X132.647 Y3.570 E4.63417
G1 X133.264 Y3.973 E4.66486
G1 X134.051 Y4.658 E4.70830
G1 X134.733 Y5.507 E4.75365
G1 X135.073 Y6.081 E4.78142
G1 X135.339 Y6.634 E4.80698
G1 X135.644 Y7.570 E4.84797
G1 X135.759 Y8.203 E4.87475
G1 X135.809 Y8.767 E4.89833
G1 X135.812 Y42.362 E6.29716
G1 X135.355 Y42.362 E6.31619
G1 X135.355 Y77.408 E7.77543
G1 X99.037 Y77.408 E9.28764
G1 X99.037 Y78.316 E9.32544
G1 X62.414 Y78.316 E10.85035
G1 X62.414 Y76.664 E10.91914
G1 X27.270 Y76.664 E12.38246
G1 X27.270 Y43.169 E13.77712
G1 X26.672 Y43.169 E13.80202
G1 X26.672 Y9.783 E15.19215
G1 X26.694 Y9.292 E15.21261
G1 X26.770 Y8.729 E15.23627
G1 X26.896 Y8.177 E15.25984
G1 F600 E13.75984
G1 Z0.525
G0 F10500 X31.046 Y9.154
;TYPE:WALL-INNER
G1 Z0.425
G1 F600 E15.25984
G1 F900 X31.217 Y8.797 E15.27632
G1 X31.307 Y8.658 E15.28322
G1 X31.551 Y8.379 E15.29865
G1 X31.850 Y8.138 E15.31464
G1 X32.187 Y7.956 E15.33059
G1 X32.360 Y7.893 E15.33826
G1 X32.711 Y7.813 E15.35325
G1 X62.047 Y7.794 E16.57474
G1 X62.047 Y19.798 E17.07456
G1 X59.372 Y18.255 E17.20314
G1 X59.372 Y31.458 E17.75289
G1 X62.047 Y29.915 E17.88147
G1 X62.047 Y38.920 E18.25642
G1 X53.042 Y38.920 E18.63137
G1 X54.046 Y37.182 E18.71494
G1 X53.505 Y36.245 E18.75999
G1 X42.463 Y36.245 E19.21976
G1 X41.922 Y37.182 E19.26481
G1 X42.926 Y38.920 E19.34839
G1 X30.921 Y38.920 E19.84825
G1 X30.921 Y9.877 E21.05754
G1 X30.956 Y9.480 E21.07413
G1 X31.046 Y9.154 E21.08822
G0 F10500 X30.393 Y9.144
;TYPE:WALL-OUTER
G1 F900 X30.466 Y8.916 E21.09818
G1 X30.670 Y8.490 E21.11785
G1 X30.807 Y8.280 E21.12829
G1 X31.113 Y7.929 E21.14768
G1 X31.504 Y7.615 E21.16856
G1 X31.936 Y7.382 E21.18900
G1 X32.172 Y7.296 E21.19946
G1 X32.399 Y7.234 E21.20925
G1 X32.866 Y7.172 E21.22887
G1 X62.672 Y7.169 E22.46993
G1 X62.672 Y20.881 E23.04087
G1 X59.997 Y19.337 E23.16947
G1 X59.997 Y30.376 E23.62912
G1 X62.672 Y28.832 E23.75772
G1 X62.672 Y39.545 E24.20379
G1 X51.959 Y39.545 E24.64985
G1 X53.324 Y37.182 E24.76348
G1 X53.144 Y36.870 E24.77848
G1 X42.824 Y36.870 E25.20818
G1 X42.644 Y37.182 E25.22318
G1 X44.009 Y39.545 E25.33681
G1 X30.296 Y39.545 E25.90779
G1 X30.296 Y9.871 E27.14335
G1 X30.308 Y9.611 E27.15419
G1 X30.339 Y9.378 E27.16398
G1 X30.393 Y9.144 E27.17398
G0 F10500 X31.170 Y9.516
;TYPE:SKIN
G1 F900 X60.355 Y38.700 E28.89250
G0 F10500 X61.238 Y38.700
G1 F900 X31.422 Y8.884 E30.64822
G0 F10500 X31.845 Y8.423
G1 F900 X61.827 Y38.405 E32.41371
G0 F10500 X61.827 Y37.521
G1 F900 X32.413 Y8.106 E34.14578
G0 F10500 X33.221 Y8.032
G1 F900 X61.827 Y36.637 E35.83021
G0 F10500 X61.827 Y35.753
G1 F900 X34.105 Y8.031 E37.46262
G0 F10500 X34.988 Y8.030
G1 F900 X61.827 Y34.869 E39.04303
G0 F10500 X61.827 Y33.985
G1 F900 X59.486 Y31.644 E39.18088
G0 F10500 X59.152 Y31.310
G1 F900 X35.872 Y8.030 E40.55173
G0 F10500 X36.755 Y8.029
G1 F900 X59.152 Y30.426 E41.87057
G0 F10500 X59.152 Y29.542
G1 F900 X37.638 Y8.029 E43.13739
G0 F10500 X38.521 Y8.028
G1 F900 X59.152 Y28.659 E44.35225
G0 F10500 X59.152 Y27.775
G1 F900 X39.405 Y8.028 E45.51505
G0 F10500 X31.138 Y10.368
G1 F900 X59.471 Y38.700 E47.18341
G0 F10500 X58.587 Y38.700
G1 F900 X31.138 Y11.252 E48.79971
G0 F10500 X31.138 Y12.136
G1 F900 X57.703 Y38.700 E50.36396
G0 F10500 X56.819 Y38.700
G1 F900 X31.138 Y13.019 E51.87619
G0 F10500 X31.138 Y13.903
G1 F900 X53.261 Y36.026 E53.17890
G0 F10500 X52.377 Y36.026
G1 F900 X31.138 Y14.787 E54.42955
G0 F10500 X31.138 Y15.671
G1 F900 X51.493 Y36.026 E55.62816
G0 F10500 X50.609 Y36.026
G1 F900 X31.138 Y16.555 E56.77471
G0 F10500 X31.138 Y17.439
G1 F900 X49.725 Y36.026 E57.86920
G0 F10500 X48.841 Y36.026
G1 F900 X31.138 Y18.323 E58.91164
G0 F10500 X31.138 Y19.207
G1 F900 X47.958 Y36.026 E59.90206
G0 F10500 X47.074 Y36.026
G1 F900 X31.138 Y20.091 E60.84042
G0 F10500 X31.138 Y20.974
G1 F900 X46.190 Y36.026 E61.72675
G0 F10500 X45.306 Y36.026
G1 F900 X31.138 Y21.858 E62.56104
G0 F10500 X31.138 Y22.742
G1 F900 X44.422 Y36.026 E63.34326
G0 F10500 X43.538 Y36.026
G1 F900 X31.138 Y23.626 E64.07344
G0 F10500 X31.139 Y24.511
G1 F900 X42.654 Y36.026 E64.75150
G0 F10500 X42.130 Y36.385
G1 F900 X31.139 Y25.395 E65.39867
G0 F10500 X31.139 Y26.278
G1 F900 X41.806 Y36.945 E66.02680
G0 F10500 X42.367 Y38.390
G1 F900 X31.139 Y27.162 E66.68796
G0 F10500 X31.139 Y28.046
G1 F900 X41.793 Y38.700 E67.31532
G0 F10500 X40.909 Y38.700
G1 F900 X31.139 Y28.930 E67.89063
G0 F10500 X31.139 Y29.814
G1 F900 X40.025 Y38.700 E68.41388
G0 F10500 X42.543 Y36.384
G0 X53.425 Y36.384
G0 X53.886 Y37.182
G0 X53.694 Y38.226
G1 F900 X54.167 Y38.700 E68.44176
G0 F10500 X55.051 Y38.700
G1 F900 X54.017 Y37.666 E68.50265
G0 F10500 X54.133 Y36.898
G1 F900 X55.935 Y38.700 E68.60876
G0 F10500 X59.152 Y26.891
G1 F900 X40.288 Y8.027 E69.71956
G0 F10500 X41.171 Y8.027
G1 F900 X59.152 Y26.007 E70.77834
G0 F10500 X59.152 Y25.123
G1 F900 X42.055 Y8.026 E71.78510
G0 F10500 X42.938 Y8.025
G1 F900 X59.152 Y24.239 E72.73986
G0 F10500 X59.152 Y23.355
G1 F900 X43.822 Y8.025 E73.64257
G0 F10500 X44.705 Y8.024
G1 F900 X59.152 Y22.471 E74.49328
G0 F10500 X59.152 Y21.587
G1 F900 X45.588 Y8.024 E75.29196
G0 F10500 X46.471 Y8.023
G1 F900 X59.152 Y20.704 E76.03868
G0 F10500 X59.152 Y19.820
G1 F900 X47.354 Y8.022 E76.73341
G0 F10500 X48.238 Y8.022
G1 F900 X59.152 Y18.936 E77.37608
G0 F10500 X59.152 Y18.052
G1 F900 X49.122 Y8.022 E77.96670
G0 F10500 X50.005 Y8.021
G1 F900 X60.823 Y18.840 E78.60374
G0 F10500 X61.827 Y18.959
G1 F900 X50.888 Y8.020 E79.24788
G0 F10500 X51.771 Y8.020
G1 F900 X61.827 Y18.075 E79.84000
G0 F10500 X61.827 Y17.191
G1 F900 X52.655 Y8.020 E80.38007
G0 F10500 X53.538 Y8.019
G1 F900 X61.827 Y16.308 E80.86816
G0 F10500 X61.827 Y15.424
G1 F900 X54.421 Y8.018 E81.30427
G0 F10500 X55.304 Y8.017
G1 F900 X61.827 Y14.540 E81.68837
G0 F10500 X61.827 Y13.656
G1 F900 X56.188 Y8.017 E82.02042
G0 F10500 X57.072 Y8.017
G1 F900 X61.827 Y12.772 E82.30042
G0 F10500 X61.827 Y11.888
G1 F900 X57.955 Y8.016 E82.52842
G0 F10500 X58.838 Y8.015
G1 F900 X61.827 Y11.004 E82.70443
G0 F10500 X61.827 Y10.120
G1 F900 X59.721 Y8.015 E82.82841
G0 F10500 X60.605 Y8.015
G1 F900 X61.827 Y9.236 E82.90034
G0 F10500 X61.827 Y8.353
G1 F900 X61.488 Y8.014 E82.92030
G0 F10500 X59.584 Y18.622
G0 X59.584 Y31.091
G0 X61.729 Y30.351
G1 F900 X61.497 Y30.562 E82.92609
G1 X61.827 Y31.334 E82.96105
G0 F10500 X61.827 Y32.217
G1 F900 X60.607 Y30.998 E83.03286
G0 F10500 X60.046 Y31.321
G1 F900 X61.827 Y33.101 E83.13770
G0 F10500 X42.543 Y36.384
G0 X42.082 Y37.182
G0 X39.141 Y38.700
G1 F900 X31.139 Y30.698 E83.60890
G0 F10500 X31.139 Y31.582
G1 F900 X38.258 Y38.700 E84.02807
G0 F10500 X37.374 Y38.700
G1 F900 X31.139 Y32.466 E84.39519
G0 F10500 X31.139 Y33.349
G1 F900 X36.490 Y38.700 E84.71029
G0 F10500 X35.606 Y38.700
G1 F900 X31.139 Y34.233 E84.97332
G0 F10500 X31.139 Y35.117
G1 F900 X34.722 Y38.700 E85.18431
G0 F10500 X33.838 Y38.700
G1 F900 X31.139 Y36.001 E85.34324
G0 F10500 X31.139 Y36.885
G1 F900 X32.954 Y38.700 E85.45012
G0 F10500 X32.070 Y38.700
G1 F900 X31.139 Y37.769 E85.50494
G1 F600 E84.00494
G1 Z0.525
G0 F10500 X66.600 Y37.152
;TYPE:WALL-INNER
G1 Z0.425
G1 F600 E85.50494
G1 F900 X66.600 Y28.147 E85.87989
G1 X69.275 Y29.691 E86.00849
G1 X69.275 Y16.488 E86.55824
G1 X66.600 Y18.031 E86.68682
G1 X66.600 Y9.026 E87.06177
G1 X75.604 Y9.026 E87.43668
G1 X74.060 Y11.701 E87.56528
G1 X87.264 Y11.701 E88.11507
G1 X85.720 Y9.026 E88.24367
G1 X94.725 Y9.026 E88.61862
G1 X94.725 Y18.031 E88.99357
G1 X92.050 Y16.488 E89.12216
G1 X92.050 Y29.691 E89.67190
G1 X94.725 Y28.147 E89.80050
G1 X94.725 Y37.152 E90.17545
G1 X85.720 Y37.152 E90.55040
G1 X87.264 Y34.477 E90.67901
G1 X74.060 Y34.477 E91.22880
G1 X75.604 Y37.152 E91.35740
G1 X66.600 Y37.152 E91.73231
G0 F10500 X65.975 Y37.777
;TYPE:WALL-OUTER
G1 F900 X65.975 Y27.064 E92.17837
G1 X68.650 Y28.609 E92.30700
G1 X68.650 Y17.570 E92.76664
G1 X65.975 Y19.114 E92.89524
G1 X65.975 Y8.401 E93.34131
G1 X76.687 Y8.401 E93.78734
G1 X75.143 Y11.076 E93.91594
G1 X86.181 Y11.076 E94.37554
G1 X84.637 Y8.401 E94.50414
G1 X95.350 Y8.401 E94.95021
G1 X95.350 Y19.114 E95.39628
G1 X92.675 Y17.570 E95.52488
G1 X92.675 Y28.609 E95.98452
G1 X95.350 Y27.064 E96.11315
G1 X95.350 Y37.777 E96.55922
G1 X84.637 Y37.777 E97.00528
G1 X86.181 Y35.102 E97.13389
G1 X75.143 Y35.102 E97.59349
G1 X76.687 Y37.777 E97.72209
G1 X65.975 Y37.777 E98.16812
G0 F10500 X66.298 Y37.364
G0 X67.426 Y36.932
;TYPE:SKIN
G1 F900 X66.818 Y36.324 E98.20392
G0 F10500 X66.818 Y35.440
G1 F900 X68.310 Y36.932 E98.29178
G0 F10500 X69.193 Y36.932
G1 F900 X66.818 Y34.557 E98.43163
G0 F10500 X66.818 Y33.673
G1 F900 X70.077 Y36.932 E98.62353
G0 F10500 X70.961 Y36.932
G1 F900 X66.818 Y32.789 E98.86749
G0 F10500 X66.818 Y31.905
G1 F900 X71.845 Y36.932 E99.16351
G0 F10500 X72.729 Y36.932
G1 F900 X66.818 Y31.021 E99.51158
G0 F10500 X66.818 Y30.137
G1 F900 X73.613 Y36.932 E99.91170
G0 F10500 X74.497 Y36.932
G1 F900 X66.818 Y29.253 E100.36388
G0 F10500 X67.187 Y28.738
G1 F900 X75.010 Y36.562 E100.82456
G0 F10500 X74.428 Y34.689
G0 X75.357 Y34.257
G1 F900 X69.493 Y28.393 E101.16987
G0 F10500 X69.493 Y29.277
G1 F900 X74.473 Y34.257 E101.46311
G0 F10500 X73.804 Y34.472
G1 F900 X69.279 Y29.947 E101.72957
G0 F10500 X69.493 Y27.509
G1 F900 X76.241 Y34.257 E102.12692
G0 F10500 X77.125 Y34.257
G1 F900 X69.493 Y26.625 E102.57633
G0 F10500 X69.493 Y25.741
G1 F900 X78.009 Y34.257 E103.07780
G0 F10500 X78.893 Y34.257
G1 F900 X69.493 Y24.857 E103.63132
G0 F10500 X69.493 Y23.973
G1 F900 X79.777 Y34.257 E104.23689
G0 F10500 X80.661 Y34.257
G1 F900 X69.493 Y23.089 E104.89452
G0 F10500 X69.493 Y22.205
G1 F900 X81.544 Y34.257 E105.60417
G0 F10500 X82.428 Y34.257
G1 F900 X69.493 Y21.322 E106.36584
G0 F10500 X69.493 Y20.438
G1 F900 X83.312 Y34.257 E107.17958
G0 F10500 X84.196 Y34.257
G1 F900 X69.493 Y19.554 E108.04536
G0 F10500 X69.493 Y18.670
G1 F900 X85.080 Y34.257 E108.96320
G0 F10500 X85.964 Y34.257
G1 F900 X69.493 Y17.786 E109.93310
G0 F10500 X69.493 Y16.902
G1 F900 X86.848 Y34.257 E110.95504
G0 F10500 X87.351 Y34.761
G1 F900 X89.523 Y36.932 E111.08291
G0 F10500 X90.407 Y36.932
G1 F900 X66.818 Y13.343 E112.47195
G0 F10500 X66.818 Y14.227
G1 F900 X68.989 Y16.399 E112.59982
G0 F10500 X68.428 Y16.722
G1 F900 X66.818 Y15.111 E112.69465
G0 F10500 X66.818 Y15.995
G1 F900 X67.868 Y17.046 E112.75651
G0 F10500 X67.308 Y17.369
G1 F900 X66.818 Y16.879 E112.78536
G0 F10500 X66.818 Y12.459
G1 F900 X91.291 Y36.932 E114.22646
G0 F10500 X92.174 Y36.932
G1 F900 X66.818 Y11.576 E115.71954
G0 F10500 X66.818 Y10.692
G1 F900 X93.058 Y36.932 E117.26468
G0 F10500 X93.942 Y36.932
G1 F900 X66.818 Y9.808 E118.86188
G0 F10500 X67.139 Y9.245
G1 F900 X94.505 Y36.611 E120.47333
G0 F10500 X94.505 Y35.727
G1 F900 X68.022 Y9.245 E122.03275
G0 F10500 X68.906 Y9.245
G1 F900 X94.505 Y34.844 E123.54014
G0 F10500 X94.505 Y33.960
G1 F900 X69.790 Y9.245 E124.99548
G0 F10500 X70.674 Y9.245
G1 F900 X94.505 Y33.076 E126.39877
G0 F10500 X94.505 Y32.192
G1 F900 X92.181 Y29.868 E126.53562
G0 F10500 X91.830 Y29.517
G1 F900 X74.233 Y11.920 E127.57182
G0 F10500 X73.883 Y11.570
G1 F900 X71.558 Y9.245 E127.70873
G0 F10500 X72.442 Y9.245
G1 F900 X74.206 Y11.009 E127.81260
G0 F10500 X74.529 Y10.448
G1 F900 X73.326 Y9.245 E127.88344
G0 F10500 X74.210 Y9.245
G1 F900 X74.853 Y9.888 E127.92130
G0 F10500 X74.428 Y11.489
G0 X75.117 Y11.920
G1 F900 X91.830 Y28.633 E128.90544
G0 F10500 X91.830 Y27.749
G1 F900 X76.001 Y11.920 E129.83753
G0 F10500 X76.885 Y11.920
G1 F900 X91.830 Y26.865 E130.71757
G0 F10500 X91.830 Y25.981
G1 F900 X77.769 Y11.920 E131.54555
G0 F10500 X78.652 Y11.920
G1 F900 X91.830 Y25.098 E132.32154
G0 F10500 X91.830 Y24.214
G1 F900 X79.536 Y11.920 E133.04547
G0 F10500 X80.420 Y11.920
G1 F900 X91.830 Y23.330 E133.71735
G0 F10500 X91.830 Y22.446
G1 F900 X81.304 Y11.920 E134.33717
G0 F10500 X82.188 Y11.920
G1 F900 X91.830 Y21.562 E134.90494
G0 F10500 X91.830 Y20.678
G1 F900 X83.072 Y11.920 E135.42065
G0 F10500 X83.956 Y11.920
G1 F900 X91.830 Y19.794 E135.88431
G0 F10500 X91.830 Y18.910
G1 F900 X84.840 Y11.920 E136.29592
G0 F10500 X85.723 Y11.920
G1 F900 X91.830 Y18.026 E136.65550
G0 F10500 X91.830 Y17.143
G1 F900 X86.607 Y11.920 E136.96306
G0 F10500 X87.491 Y11.920
G1 F900 X91.830 Y16.259 E137.21856
G0 F10500 X93.565 Y17.109
G1 F900 X86.641 Y10.185 E137.62628
G0 F10500 X86.584 Y9.245
G1 F900 X94.505 Y17.166 E138.09270
G0 F10500 X94.505 Y16.282
G1 F900 X87.468 Y9.245 E138.50708
G0 F10500 X88.352 Y9.245
G1 F900 X94.505 Y15.398 E138.86940
G0 F10500 X94.505 Y14.514
G1 F900 X89.236 Y9.245 E139.17966
G0 F10500 X90.120 Y9.245
G1 F900 X94.505 Y13.630 E139.43787
G0 F10500 X94.505 Y12.747
G1 F900 X91.003 Y9.245 E139.64409
G0 F10500 X91.887 Y9.245
G1 F900 X94.505 Y11.863 E139.79825
G0 F10500 X94.505 Y10.979
G1 F900 X92.771 Y9.245 E139.90036
G0 F10500 X93.655 Y9.245
G1 F900 X94.505 Y10.095 E139.95041
G0 F10500 X92.262 Y16.855
G0 X92.262 Y29.324
G0 X93.862 Y28.897
G1 F900 X94.505 Y29.540 E139.98827
G0 F10500 X94.505 Y30.424
G1 F900 X93.302 Y29.221 E140.05911
G0 F10500 X92.742 Y29.545
G1 F900 X94.505 Y31.308 E140.16292
G0 F10500 X88.639 Y36.932
G1 F900 X87.027 Y35.321 E140.25782
G0 F10500 X86.704 Y35.882
G1 F900 X87.755 Y36.932 E140.31967
G0 F10500 X86.871 Y36.932
G1 F900 X86.380 Y36.442 E140.34856
G1 F600 E138.84856
G1 Z0.525
G0 F10500 X100.437 Y38.113
;TYPE:WALL-INNER
G1 Z0.425
G1 F600 E140.34856
G1 F900 X100.437 Y29.108 E140.72351
G1 X103.112 Y30.652 E140.85211
G1 X103.112 Y17.447 E141.40194
G1 X100.437 Y18.991 E141.53054
G1 X100.437 Y6.987 E142.03037
G1 X129.480 Y6.987 E143.23966
G1 X129.869 Y7.022 E143.25592
G1 X130.200 Y7.111 E143.27019
G1 X130.563 Y7.284 E143.28693
G1 X130.698 Y7.372 E143.29364
G1 X130.976 Y7.615 E143.30902
G1 X131.230 Y7.931 E143.32590
G1 X131.323 Y8.088 E143.33350
G1 X131.385 Y8.218 E143.33949
G1 X131.515 Y8.614 E143.35685
G1 X131.560 Y8.954 E143.37113
G1 X131.563 Y38.113 E144.58525
G1 X119.558 Y38.113 E145.08511
G1 X121.101 Y35.438 E145.21370
G1 X107.898 Y35.438 E145.76344
G1 X109.442 Y38.113 E145.89205
G1 X100.437 Y38.113 E146.26700
G0 F10500 X99.812 Y38.738
;TYPE:WALL-OUTER
G1 F900 X99.812 Y28.025 E146.71306
G1 X102.487 Y29.569 E146.84167
G1 X102.487 Y18.530 E147.30131
G1 X99.812 Y20.074 E147.42991
G1 X99.812 Y6.362 E148.00085
G1 X129.486 Y6.362 E149.23642
G1 X129.746 Y6.374 E149.24725
G1 X129.981 Y6.405 E149.25712
G1 X130.211 Y6.458 E149.26695
G1 X130.437 Y6.531 E149.27684
G1 X130.869 Y6.737 E149.29677
G1 X131.076 Y6.872 E149.30706
G1 X131.429 Y7.180 E149.32657
G1 X131.746 Y7.575 E149.34765
G1 X131.874 Y7.791 E149.35811
G1 X131.966 Y7.982 E149.36694
G1 X132.122 Y8.461 E149.38791
G1 X132.185 Y8.932 E149.40770
G1 X132.188 Y38.738 E150.64876
G1 X118.475 Y38.738 E151.21974
G1 X120.019 Y36.063 E151.34834
G1 X108.980 Y36.063 E151.80798
G1 X110.525 Y38.738 E151.93661
G1 X99.812 Y38.738 E152.38268
G0 F10500 X100.135 Y38.325
G0 X101.090 Y37.893
;TYPE:SKIN
G1 F900 X100.655 Y37.458 E152.40829
G0 F10500 X100.655 Y36.574
G1 F900 X101.974 Y37.893 E152.48596
G0 F10500 X102.858 Y37.893
G1 F900 X100.655 Y35.690 E152.61568
G0 F10500 X100.655 Y34.806
G1 F900 X103.742 Y37.893 E152.79746
G0 F10500 X104.626 Y37.893
G1 F900 X100.655 Y33.922 E153.03129
G0 F10500 X100.655 Y33.038
G1 F900 X105.510 Y37.893 E153.31718
G0 F10500 X106.394 Y37.893
G1 F900 X100.655 Y32.154 E153.65512
G0 F10500 X100.655 Y31.271
G1 F900 X107.277 Y37.893 E154.04506
G0 F10500 X108.161 Y37.893
G1 F900 X100.655 Y30.387 E154.48705
G0 F10500 X100.655 Y29.503
G1 F900 X109.045 Y37.893 E154.98109
G0 F10500 X107.878 Y35.842
G1 F900 X102.707 Y30.672 E155.28556
G0 F10500 X103.330 Y30.410
G1 F900 X108.138 Y35.218 E155.56868
G0 F10500 X109.022 Y35.218
G1 F900 X103.330 Y29.526 E155.90385
G0 F10500 X103.330 Y28.642
G1 F900 X109.906 Y35.218 E156.29108
G0 F10500 X110.790 Y35.218
G1 F900 X103.330 Y27.758 E156.73036
G0 F10500 X103.330 Y26.875
G1 F900 X111.674 Y35.218 E157.22166
G0 F10500 X112.557 Y35.218
G1 F900 X103.330 Y25.991 E157.76500
G0 F10500 X103.330 Y25.107
G1 F900 X113.441 Y35.218 E158.36038
G0 F10500 X114.325 Y35.218
G1 F900 X103.330 Y24.223 E159.00782
G0 F10500 X103.330 Y23.339
G1 F900 X115.209 Y35.218 E159.70732
G0 F10500 X116.093 Y35.218
G1 F900 X103.330 Y22.455 E160.45887
G0 F10500 X103.330 Y21.571
G1 F900 X116.977 Y35.218 E161.26247
G0 F10500 X117.861 Y35.218
G1 F900 X103.330 Y20.687 E162.11813
G0 F10500 X103.330 Y19.803
G1 F900 X118.745 Y35.218 E163.02584
G0 F10500 X119.629 Y35.218
G1 F900 X103.330 Y18.920 E163.98557
G0 F10500 X103.330 Y18.036
G1 F900 X120.512 Y35.218 E164.99733
G0 F10500 X121.125 Y35.831
G1 F900 X123.187 Y37.893 E165.11876
G0 F10500 X122.304 Y37.893
G1 F900 X120.802 Y36.391 E165.20720
G0 F10500 X120.478 Y36.952
G1 F900 X121.420 Y37.893 E165.26264
G0 F10500 X120.536 Y37.893
G1 F900 X120.155 Y37.513 E165.28505
G0 F10500 X121.448 Y35.270
G1 F900 X124.071 Y37.893 E165.43950
G0 F10500 X124.955 Y37.893
G1 F900 X100.655 Y13.593 E166.87041
G0 F10500 X100.655 Y14.477
G1 F900 X103.275 Y17.097 E167.02468
G0 F10500 X103.330 Y17.152
G1 F900 X121.396 Y35.218 E168.08850
G0 F10500 X125.839 Y37.893
G1 F900 X100.655 Y12.709 E169.57146
G0 F10500 X100.655 Y11.825
G1 F900 X126.723 Y37.893 E171.10647
G0 F10500 X127.607 Y37.893
G1 F900 X100.655 Y10.941 E172.69354
G0 F10500 X100.655 Y10.057
G1 F900 X128.491 Y37.893 E174.33266
G0 F10500 X129.375 Y37.893
G1 F900 X100.655 Y9.174 E176.02381
G0 F10500 X100.655 Y8.290
G1 F900 X130.258 Y37.893 E177.76698
G0 F10500 X131.142 Y37.893
G1 F900 X100.655 Y7.406 E179.56220
G0 F10500 X101.339 Y7.206
G1 F900 X131.343 Y37.210 E181.32899
G0 F10500 X131.343 Y36.326
G1 F900 X102.222 Y7.206 E183.04375
G0 F10500 X103.106 Y7.206
G1 F900 X131.343 Y35.443 E184.70648
G0 F10500 X131.343 Y34.559
G1 F900 X103.990 Y7.206 E186.31716
G0 F10500 X104.874 Y7.206
G1 F900 X131.343 Y33.675 E187.87579
G0 F10500 X131.343 Y32.791
G1 F900 X105.758 Y7.206 E189.38236
G0 F10500 X106.642 Y7.206
G1 F900 X131.343 Y31.907 E190.83688
G0 F10500 X131.343 Y31.023
G1 F900 X107.526 Y7.206 E192.23934
G0 F10500 X108.410 Y7.206
G1 F900 X131.342 Y30.139 E193.58972
G0 F10500 X131.342 Y29.255
G1 F900 X109.293 Y7.206 E194.88807
G0 F10500 X110.177 Y7.206
G1 F900 X131.342 Y28.371 E196.13437
G0 F10500 X131.342 Y27.487
G1 F900 X111.061 Y7.206 E197.32862
G0 F10500 X111.945 Y7.206
G1 F900 X131.342 Y26.603 E198.47081
G0 F10500 X131.342 Y25.719
G1 F900 X112.829 Y7.206 E199.56095
G0 F10500 X113.713 Y7.206
G1 F900 X131.342 Y24.835 E200.59903
G0 F10500 X131.342 Y23.951
G1 F900 X114.597 Y7.206 E201.58506
G0 F10500 X115.481 Y7.206
G1 F900 X131.342 Y23.067 E202.51903
G0 F10500 X131.342 Y22.183
G1 F900 X116.365 Y7.206 E203.40095
G0 F10500 X117.248 Y7.206
G1 F900 X131.342 Y21.299 E204.23085
G0 F10500 X131.342 Y20.415
G1 F900 X118.132 Y7.206 E205.00869
G0 F10500 X119.016 Y7.206
G1 F900 X131.342 Y19.531 E205.73448
G0 F10500 X131.342 Y18.647
G1 F900 X119.900 Y7.206 E206.40821
G0 F10500 X102.715 Y17.421
G1 F900 X100.655 Y15.361 E206.52951
G0 F10500 X100.655 Y16.245
G1 F900 X102.155 Y17.745 E206.61784
G0 F10500 X101.594 Y18.068
G1 F900 X100.655 Y17.128 E206.67316
G0 F10500 X100.655 Y18.012
G1 F900 X101.034 Y18.392 E206.69551
G0 F10500 X120.784 Y7.206
G1 F900 X131.342 Y17.763 E207.31719
G0 F10500 X131.342 Y16.880
G1 F900 X121.668 Y7.206 E207.88684
G0 F10500 X122.552 Y7.206
G1 F900 X131.341 Y15.995 E208.40438
G0 F10500 X131.341 Y15.111
G1 F900 X123.436 Y7.206 E208.86986
G0 F10500 X124.319 Y7.206
G1 F900 X131.341 Y14.227 E209.28333
G0 F10500 X131.341 Y13.343
G1 F900 X125.203 Y7.206 E209.64473
G0 F10500 X126.087 Y7.206
G1 F900 X131.341 Y12.459 E209.95408
G0 F10500 X131.341 Y11.576
G1 F900 X126.971 Y7.206 E210.21141
G0 F10500 X127.855 Y7.206
G1 F900 X131.341 Y10.692 E210.41668
G0 F10500 X131.341 Y9.808
G1 F900 X128.739 Y7.206 E210.56990
G0 F10500 X129.638 Y7.221
G1 F900 X131.334 Y8.917 E210.66977
G1 F600 E209.16977
G1 Z0.525
G0 F10500 X131.106 Y45.033
;TYPE:WALL-INNER
G1 Z0.425
G1 F600 E210.66977
G1 F900 X131.106 Y73.159 E211.84088
G1 X119.101 Y73.159 E212.34074
G1 X120.644 Y70.484 E212.46933
G1 X107.441 Y70.484 E213.01907
G1 X108.985 Y73.159 E213.14768
G1 X99.980 Y73.159 E213.52263
G1 X99.980 Y64.155 E213.89753
G1 X102.655 Y65.699 E214.02614
G1 X102.655 Y52.494 E214.57597
G1 X99.980 Y54.038 E214.70457
G1 X99.980 Y45.033 E215.07952
G1 X108.985 Y45.033 E215.45447
G1 X107.441 Y47.708 E215.58307
G1 X120.644 Y47.708 E216.13282
G1 X119.101 Y45.033 E216.26140
G1 X131.106 Y45.033 E216.76127
G0 F10500 X131.731 Y44.408
;TYPE:WALL-OUTER
G1 F900 X131.731 Y73.784 E217.98442
G1 X118.018 Y73.784 E218.55540
G1 X119.562 Y71.109 E218.68401
G1 X108.523 Y71.109 E219.14365
G1 X110.068 Y73.784 E219.27227
G1 X99.355 Y73.784 E219.71834
G1 X99.355 Y63.072 E220.16437
G1 X102.030 Y64.616 E220.29297
G1 X102.030 Y53.577 E220.75261
G1 X99.355 Y55.121 E220.88122
G1 X99.355 Y44.408 E221.32728
G1 X110.068 Y44.408 E221.77335
G1 X108.523 Y47.083 E221.90198
G1 X119.562 Y47.083 E222.36162
G1 X118.018 Y44.408 E222.49022
G1 X131.731 Y44.408 E223.06120
G0 F10500 X130.886 Y45.592
;TYPE:SKIN
G1 F900 X130.546 Y45.252 E223.08122
G0 F10500 X129.662 Y45.252
G1 F900 X130.886 Y46.476 E223.15330
G0 F10500 X130.886 Y47.360
G1 F900 X128.778 Y45.252 E223.27743
G0 F10500 X127.894 Y45.252
G1 F900 X130.886 Y48.244 E223.45361
G0 F10500 X130.886 Y49.128
G1 F900 X127.010 Y45.252 E223.68185
G0 F10500 X126.126 Y45.252
G1 F900 X130.886 Y50.012 E223.96214
G0 F10500 X130.886 Y50.896
G1 F900 X125.242 Y45.252 E224.29449
G0 F10500 X124.358 Y45.252
G1 F900 X130.886 Y51.780 E224.67889
G0 F10500 X130.886 Y52.663
G1 F900 X123.474 Y45.252 E225.11531
G0 F10500 X122.591 Y45.252
G1 F900 X130.886 Y53.547 E225.60377
G0 F10500 X130.886 Y54.431
G1 F900 X121.707 Y45.252 E226.14427
G0 F10500 X120.823 Y45.252
G1 F900 X130.886 Y55.315 E226.73683
G0 F10500 X130.886 Y56.199
G1 F900 X119.939 Y45.252 E227.38144
G0 F10500 X120.277 Y47.496
G0 X119.962 Y47.926
G1 F900 X130.886 Y58.851 E228.02473
G0 F10500 X130.886 Y59.734
G1 F900 X119.078 Y47.926 E228.72005
G0 F10500 X118.195 Y47.926
G1 F900 X130.886 Y60.618 E229.46738
G0 F10500 X130.886 Y61.502
G1 F900 X117.311 Y47.926 E230.26678
G0 F10500 X116.427 Y47.926
G1 F900 X130.886 Y62.386 E231.11822
G0 F10500 X130.886 Y63.270
G1 F900 X115.543 Y47.926 E232.02172
G0 F10500 X114.659 Y47.926
G1 F900 X130.886 Y64.154 E232.97728
G0 F10500 X130.886 Y65.038
G1 F900 X113.775 Y47.926 E233.98489
G0 F10500 X112.891 Y47.926
G1 F900 X130.886 Y65.922 E235.04455
G0 F10500 X130.886 Y66.806
G1 F900 X112.007 Y47.926 E236.15627
G0 F10500 X111.123 Y47.926
G1 F900 X130.886 Y67.689 E237.32002
G0 F10500 X130.886 Y68.573
G1 F900 X110.240 Y47.926 E238.53578
G0 F10500 X109.356 Y47.926
G1 F900 X130.886 Y69.457 E239.80361
G0 F10500 X130.886 Y70.341
G1 F900 X108.472 Y47.926 E241.12348
G0 F10500 X107.588 Y47.926
G1 F900 X130.886 Y71.225 E242.49542
G0 F10500 X130.886 Y72.109
G1 F900 X104.029 Y45.252 E244.07689
G0 F10500 X103.145 Y45.252
G1 F900 X130.833 Y72.940 E245.70730
G0 F10500 X129.949 Y72.940
G1 F900 X102.261 Y45.252 E247.33770
G0 F10500 X101.377 Y45.252
G1 F900 X129.066 Y72.940 E248.96814
G0 F10500 X128.182 Y72.940
G1 F900 X100.494 Y45.252 E250.59854
G0 F10500 X100.198 Y45.840
G1 F900 X127.298 Y72.940 E252.19433
G0 F10500 X126.414 Y72.940
G1 F900 X100.198 Y46.724 E253.73805
G0 F10500 X100.198 Y47.608
G1 F900 X125.530 Y72.940 E255.22973
G0 F10500 X124.646 Y72.940
G1 F900 X100.198 Y48.491 E256.66938
G0 F10500 X100.198 Y49.375
G1 F900 X123.762 Y72.940 E258.05697
G0 F10500 X122.878 Y72.940
G1 F900 X120.722 Y70.784 E258.18393
G0 F10500 X120.399 Y71.344
G1 F900 X121.995 Y72.940 E258.27791
G0 F10500 X121.111 Y72.940
G1 F900 X120.075 Y71.904 E258.33891
G0 F10500 X119.752 Y72.465
G1 F900 X120.227 Y72.940 E258.36688
G0 F10500 X120.203 Y70.265
G1 F900 X102.873 Y52.934 E259.38739
G0 F10500 X102.352 Y52.414
G1 F900 X100.198 Y50.259 E259.51426
G0 F10500 X100.198 Y51.143
G1 F900 X101.792 Y52.738 E259.60815
G0 F10500 X101.232 Y53.061
G1 F900 X100.198 Y52.027 E259.66904
G0 F10500 X100.198 Y52.911
G1 F900 X100.672 Y53.385 E259.69695
G0 F10500 X102.443 Y52.862
G0 X102.873 Y53.818
G1 F900 X119.320 Y70.265 E260.66543
G0 F10500 X118.436 Y70.265
G1 F900 X102.873 Y54.702 E261.58185
G0 F10500 X102.873 Y55.586
G1 F900 X117.552 Y70.265 E262.44623
G0 F10500 X116.668 Y70.265
G1 F900 X102.873 Y56.470 E263.25854
G0 F10500 X102.873 Y57.354
G1 F900 X115.784 Y70.265 E264.01881
G0 F10500 X114.900 Y70.265
G1 F900 X102.873 Y58.238 E264.72702
G0 F10500 X102.873 Y59.121
G1 F900 X114.016 Y70.265 E265.38320
G0 F10500 X113.132 Y70.265
G1 F900 X102.873 Y60.005 E265.98733
G0 F10500 X102.873 Y60.889
G1 F900 X112.248 Y70.265 E266.53941
G0 F10500 X111.365 Y70.265
G1 F900 X102.873 Y61.773 E267.03946
G0 F10500 X102.873 Y62.657
G1 F900 X110.481 Y70.265 E267.48746
G0 F10500 X109.597 Y70.265
G1 F900 X102.873 Y63.541 E267.88340
G0 F10500 X102.873 Y64.425
G1 F900 X108.713 Y70.265 E268.22729
G0 F10500 X107.829 Y70.265
G1 F900 X102.873 Y65.309 E268.51912
G0 F10500 X102.602 Y65.922
G1 F900 X107.220 Y70.539 E268.79102
G0 F10500 X108.426 Y72.629
G1 F900 X100.512 Y64.715 E269.25704
G0 F10500 X100.197 Y65.285
G1 F900 X107.852 Y72.939 E269.70777
G0 F10500 X106.968 Y72.939
G1 F900 X100.197 Y66.168 E270.10648
G0 F10500 X100.197 Y67.052
G1 F900 X106.084 Y72.939 E270.45314
G0 F10500 X105.200 Y72.939
G1 F900 X100.197 Y67.936 E270.74774
G0 F10500 X100.197 Y68.820
G1 F900 X104.316 Y72.939 E270.99029
G0 F10500 X103.432 Y72.939
G1 F900 X100.197 Y69.704 E271.18078
G0 F10500 X100.197 Y70.588
G1 F900 X102.548 Y72.939 E271.31922
G0 F10500 X101.664 Y72.939
G1 F900 X100.197 Y71.472 E271.40560
G0 F10500 X100.197 Y72.356
G1 F900 X100.781 Y72.939 E271.43996
G0 F10500 X107.254 Y47.593
G1 F900 X104.913 Y45.252 E271.57781
G0 F10500 X105.797 Y45.252
G1 F900 X107.577 Y47.032 E271.68263
G0 F10500 X107.901 Y46.472
G1 F900 X106.681 Y45.252 E271.75447
G0 F10500 X107.565 Y45.252
G1 F900 X108.386 Y45.631 E271.79332
G1 X108.448 Y45.252 E271.80931
G0 F10500 X107.808 Y47.496
G0 X120.277 Y47.496
G0 X120.056 Y46.253
G1 F900 X130.886 Y57.083 E272.44704
G0 F10500 X130.886 Y57.967
G1 F900 X120.846 Y47.926 E273.03827
G1 F600 E271.53827
G1 Z0.525
G0 F10500 X94.788 Y51.946
;TYPE:WALL-INNER
G1 Z0.425
G1 F600 E273.03827
G1 F900 X92.113 Y50.403 E273.16685
G1 X92.113 Y63.606 E273.71660
G1 X94.788 Y62.062 E273.84520
G1 X94.788 Y74.067 E274.34507
G1 X66.663 Y74.067 E275.51613
G1 X66.663 Y62.062 E276.01600
G1 X69.338 Y63.606 E276.14460
G1 X69.338 Y50.403 E276.69435
G1 X66.663 Y51.946 E276.82293
G1 X66.663 Y42.941 E277.19788
G1 X75.668 Y42.941 E277.57283
G1 X74.664 Y44.679 E277.65640
G1 X75.205 Y45.616 E277.70145
G1 X86.246 Y45.616 E278.16118
G1 X86.787 Y44.679 E278.20623
G1 X85.783 Y42.941 E278.28980
G1 X94.788 Y42.941 E278.66475
G1 X94.788 Y51.946 E279.03970
G0 F10500 X92.944 Y51.128
G0 X92.738 Y51.485
;TYPE:WALL-OUTER
G1 F900 X92.738 Y62.524 E279.49934
G1 X95.413 Y60.979 E279.62797
G1 X95.413 Y74.692 E280.19895
G1 X66.038 Y74.692 E281.42207
G1 X66.038 Y60.979 E281.99305
G1 X68.713 Y62.524 E282.12167
G1 X68.713 Y51.485 E282.58131
G1 X66.038 Y53.029 E282.70992
G1 X66.038 Y42.316 E283.15598
G1 X76.751 Y42.316 E283.60205
G1 X75.386 Y44.679 E283.71568
G1 X75.566 Y44.991 E283.73068
G1 X85.885 Y44.991 E284.16034
G1 X86.065 Y44.679 E284.17534
G1 X84.700 Y42.316 E284.28896
G1 X95.413 Y42.316 E284.73503
G1 X95.413 Y53.029 E285.18110
G1 X92.738 Y51.485 E285.30970
G0 F10500 X91.893 Y51.677
;TYPE:SKIN
G1 F900 X86.051 Y45.835 E285.65371
G0 F10500 X86.576 Y45.476
G1 F900 X91.893 Y50.793 E285.96680
G0 F10500 X92.163 Y50.179
G1 F900 X86.900 Y44.916 E286.27671
G0 F10500 X86.344 Y43.477
G1 F900 X94.250 Y51.383 E286.74225
G0 F10500 X94.568 Y50.816
G1 F900 X86.911 Y43.160 E287.19311
G0 F10500 X87.795 Y43.160
G1 F900 X94.568 Y49.933 E287.59193
G0 F10500 X94.568 Y49.049
G1 F900 X88.679 Y43.160 E287.93871
G0 F10500 X89.563 Y43.160
G1 F900 X94.568 Y48.165 E288.23343
G0 F10500 X94.568 Y47.281
G1 F900 X90.447 Y43.160 E288.47609
G0 F10500 X91.331 Y43.160
G1 F900 X94.568 Y46.397 E288.66670
G0 F10500 X94.568 Y45.513
G1 F900 X92.215 Y43.160 E288.80526
G0 F10500 X93.099 Y43.160
G1 F900 X94.568 Y44.629 E288.89176
G0 F10500 X94.568 Y43.745
G1 F900 X93.982 Y43.160 E288.92624
G0 F10500 X85.167 Y45.835
G1 F900 X91.893 Y52.561 E289.32230
G0 F10500 X91.893 Y53.445
G1 F900 X84.283 Y45.835 E289.77041
G0 F10500 X83.399 Y45.835
G1 F900 X91.893 Y54.329 E290.27058
G0 F10500 X91.893 Y55.213
G1 F900 X82.515 Y45.835 E290.82280
G0 F10500 X81.631 Y45.835
G1 F900 X91.893 Y56.096 E291.42705
G0 F10500 X91.893 Y56.980
G1 F900 X80.748 Y45.835 E292.08333
G0 F10500 X79.864 Y45.835
G1 F900 X91.893 Y57.864 E292.79165
G0 F10500 X91.893 Y58.748
G1 F900 X78.980 Y45.835 E293.55203
G0 F10500 X78.096 Y45.835
G1 F900 X91.893 Y59.632 E294.36447
G0 F10500 X91.893 Y60.516
G1 F900 X77.212 Y45.835 E295.22896
G0 F10500 X76.328 Y45.835
G1 F900 X91.893 Y61.400 E296.14550
G0 F10500 X91.893 Y62.284
G1 F900 X75.444 Y45.835 E297.11410
G0 F10500 X74.579 Y44.970
G1 F900 X72.769 Y43.160 E297.22068
G0 F10500 X71.885 Y43.160
G1 F900 X91.893 Y63.167 E298.39882
G0 F10500 X92.411 Y63.686
G1 F900 X94.567 Y65.842 E298.52578
G0 F10500 X94.567 Y66.726
G1 F900 X71.002 Y43.160 E299.91343
G0 F10500 X70.118 Y43.160
G1 F900 X94.567 Y67.610 E301.35314
G0 F10500 X94.567 Y68.493
G1 F900 X69.234 Y43.160 E302.84487
G0 F10500 X68.350 Y43.160
G1 F900 X94.567 Y69.377 E304.38866
G0 F10500 X94.567 Y70.261
G1 F900 X67.466 Y43.160 E305.98450
G0 F10500 X66.880 Y43.458
G1 F900 X94.567 Y71.145 E307.61485
G0 F10500 X94.567 Y72.029
G1 F900 X66.880 Y44.342 E309.24520
G0 F10500 X66.880 Y45.226
G1 F900 X94.567 Y72.913 E310.87555
G0 F10500 X94.567 Y73.797
G1 F900 X66.880 Y46.110 E312.50589
G0 F10500 X66.880 Y46.994
G1 F900 X93.734 Y73.847 E314.08716
G0 F10500 X92.850 Y73.847
G1 F900 X69.555 Y50.553 E315.45886
G0 F10500 X69.220 Y50.217
G1 F900 X66.880 Y47.878 E315.59662
G0 F10500 X66.880 Y48.762
G1 F900 X68.659 Y50.540 E315.70134
G0 F10500 X68.099 Y50.864
G1 F900 X66.880 Y49.645 E315.77312
G0 F10500 X66.880 Y50.529
G1 F900 X67.257 Y51.348 E315.81187
G1 X66.880 Y51.413 E315.82780
G0 F10500 X69.126 Y50.770
G0 X69.555 Y51.437
G1 F900 X91.966 Y73.847 E317.14744
G0 F10500 X91.082 Y73.847
G1 F900 X69.555 Y52.320 E318.41505
G0 F10500 X69.555 Y53.204
G1 F900 X90.198 Y73.847 E319.63062
G0 F10500 X89.314 Y73.847
G1 F900 X69.555 Y54.088 E320.79412
G0 F10500 X69.555 Y54.972
G1 F900 X88.430 Y73.847 E321.90558
G0 F10500 X87.546 Y73.847
G1 F900 X69.555 Y55.856 E322.96498
G0 F10500 X69.555 Y56.740
G1 F900 X86.663 Y73.847 E323.97235
G0 F10500 X85.779 Y73.847
G1 F900 X69.555 Y57.624 E324.92767
G0 F10500 X69.555 Y58.508
G1 F900 X84.895 Y73.847 E325.83094
G0 F10500 X84.011 Y73.847
G1 F900 X69.555 Y59.392 E326.68215
G0 F10500 X74.690 Y44.197
G1 F900 X73.653 Y43.160 E326.74321
G0 F10500 X74.537 Y43.160
G1 F900 X75.013 Y43.636 E326.77124
G0 F10500 X69.555 Y60.275
G1 F900 X83.127 Y73.847 E327.57043
G0 F10500 X82.243 Y73.847
G1 F900 X69.555 Y61.159 E328.31756
G0 F10500 X69.555 Y62.043
G1 F900 X81.359 Y73.847 E329.01264
G0 F10500 X80.475 Y73.847
G1 F900 X69.555 Y62.927 E329.65566
G0 F10500 X69.555 Y63.811
G1 F900 X79.591 Y73.847 E330.24663
G0 F10500 X78.708 Y73.847
G1 F900 X67.875 Y63.015 E330.88450
G0 F10500 X66.881 Y62.904
G1 F900 X77.824 Y73.847 E331.52888
G0 F10500 X76.940 Y73.847
G1 F900 X66.881 Y63.788 E332.12120
G0 F10500 X66.881 Y64.672
G1 F900 X76.056 Y73.847 E332.66147
G0 F10500 X75.172 Y73.847
G1 F900 X66.881 Y65.556 E333.14969
G0 F10500 X66.881 Y66.440
G1 F900 X74.288 Y73.847 E333.58585
G0 F10500 X73.404 Y73.847
G1 F900 X66.881 Y67.324 E333.96996
G0 F10500 X66.881 Y68.208
G1 F900 X72.520 Y73.847 E334.30201
G0 F10500 X71.636 Y73.847
G1 F900 X66.881 Y69.092 E334.58201
G0 F10500 X66.881 Y69.975
G1 F900 X70.753 Y73.847 E334.81001
G0 F10500 X69.869 Y73.847
G1 F900 X66.881 Y70.859 E334.98596
G0 F10500 X66.881 Y71.743
G1 F900 X68.985 Y73.847 E335.10985
G0 F10500 X68.101 Y73.847
G1 F900 X66.881 Y72.627 E335.18169
G0 F10500 X66.881 Y73.511
G1 F900 X67.217 Y73.847 E335.20148
G0 F10500 X92.972 Y63.363
G1 F900 X94.567 Y64.958 E335.29540
G0 F10500 X94.567 Y64.074
G1 F900 X93.532 Y63.039 E335.35634
G0 F10500 X94.093 Y62.716
G1 F900 X94.567 Y63.190 E335.38426
G1 F600 E333.88426
G1 Z0.525
G0 F10500 X62.645 Y63.410
;TYPE:WALL-INNER
G1 Z0.425
G1 F600 E335.38426
G1 F900 X62.645 Y72.415 E335.75920
G1 X53.640 Y72.415 E336.13415
G1 X55.183 Y69.740 E336.26274
G1 X41.980 Y69.740 E336.81248
G1 X43.523 Y72.415 E336.94107
G1 X31.519 Y72.415 E337.44089
G1 X31.519 Y44.289 E338.61200
G1 X43.523 Y44.289 E339.11182
G1 X41.980 Y46.964 E339.24040
G1 X55.183 Y46.964 E339.79015
G1 X53.640 Y44.289 E339.91873
G1 X62.645 Y44.289 E340.29368
G1 X62.645 Y53.293 E340.66859
G1 X59.970 Y51.749 E340.79719
G1 X59.970 Y64.954 E341.34702
G1 X62.645 Y63.410 E341.47563
G0 F10500 X60.801 Y64.228
G0 X60.595 Y63.871
;TYPE:WALL-OUTER
G1 F900 X63.270 Y62.327 E341.60423
G1 X63.270 Y73.040 E342.05030
G1 X52.557 Y73.040 E342.49636
G1 X54.101 Y70.365 E342.62497
G1 X43.062 Y70.365 E343.08461
G1 X44.606 Y73.040 E343.21321
G1 X30.894 Y73.040 E343.78415
G1 X30.894 Y43.664 E345.00731
G1 X44.606 Y43.664 E345.57825
G1 X43.062 Y46.339 E345.70685
G1 X54.101 Y46.339 E346.16649
G1 X52.557 Y43.664 E346.29510
G1 X63.270 Y43.664 E346.74116
G1 X63.270 Y54.376 E347.18719
G1 X60.595 Y52.832 E347.31579
G1 X60.595 Y63.871 E347.77544
G0 F10500 X60.768 Y64.746
;TYPE:SKIN
G1 F900 X62.426 Y66.404 E347.87307
G0 F10500 X62.426 Y67.288
G1 F900 X60.207 Y65.069 E348.00373
G0 F10500 X61.328 Y64.422
G1 F900 X62.426 Y65.520 E348.06839
G0 F10500 X62.426 Y64.636
G1 F900 X61.888 Y64.099 E348.10004
G0 F10500 X62.426 Y68.172
G1 F900 X38.761 Y44.507 E349.49355
G0 F10500 X37.877 Y44.507
G1 F900 X62.426 Y69.056 E350.93912
G0 F10500 X62.426 Y69.939
G1 F900 X36.993 Y44.507 E352.43671
G0 F10500 X36.109 Y44.507
G1 F900 X62.426 Y70.823 E353.98636
G0 F10500 X62.426 Y71.707
G1 F900 X35.225 Y44.507 E355.58806
G0 F10500 X34.342 Y44.507
G1 F900 X62.030 Y72.195 E357.21846
G0 F10500 X61.146 Y72.195
G1 F900 X33.458 Y44.507 E358.84887
G0 F10500 X32.574 Y44.507
G1 F900 X60.262 Y72.195 E360.47928
G0 F10500 X59.378 Y72.195
G1 F900 X31.737 Y44.554 E362.10691
G0 F10500 X31.737 Y45.438
G1 F900 X58.494 Y72.195 E363.68250
G0 F10500 X57.610 Y72.195
G1 F900 X55.332 Y69.917 E363.81664
G0 F10500 X54.935 Y69.520
G1 F900 X31.737 Y46.322 E365.18265
G0 F10500 X31.737 Y47.206
G1 F900 X54.051 Y69.520 E366.49661
G0 F10500 X53.168 Y69.520
G1 F900 X31.737 Y48.090 E367.75855
G0 F10500 X31.737 Y48.974
G1 F900 X52.284 Y69.520 E368.96842
G0 F10500 X51.400 Y69.520
G1 F900 X31.737 Y49.858 E370.12625
G0 F10500 X31.737 Y50.741
G1 F900 X50.516 Y69.520 E371.23205
G0 F10500 X49.632 Y69.520
G1 F900 X31.737 Y51.625 E372.28580
G0 F10500 X31.737 Y52.509
G1 F900 X48.748 Y69.520 E373.28749
G0 F10500 X47.864 Y69.520
G1 F900 X31.737 Y53.393 E374.23713
G0 F10500 X31.737 Y54.277
G1 F900 X46.980 Y69.520 E375.13471
G0 F10500 X46.096 Y69.520
G1 F900 X31.737 Y55.161 E375.98024
G0 F10500 X31.737 Y56.045
G1 F900 X45.213 Y69.520 E376.77374
G0 F10500 X44.329 Y69.520
G1 F900 X31.737 Y56.929 E377.51519
G0 F10500 X31.737 Y57.813
G1 F900 X43.445 Y69.520 E378.20459
G0 F10500 X42.561 Y69.520
G1 F900 X31.737 Y58.696 E378.84196
G0 F10500 X31.737 Y59.580
G1 F900 X41.677 Y69.520 E379.42728
G0 F10500 X42.702 Y71.429
G1 F900 X31.737 Y60.464 E380.07295
G0 F10500 X31.737 Y61.348
G1 F900 X42.584 Y72.194 E380.71165
G0 F10500 X41.700 Y72.194
G1 F900 X31.737 Y62.232 E381.29829
G0 F10500 X31.737 Y63.116
G1 F900 X40.816 Y72.194 E381.83287
G0 F10500 X42.347 Y69.952
G0 X54.816 Y69.952
G0 X54.362 Y71.598
G1 F900 X54.959 Y72.195 E381.86803
G0 F10500 X55.843 Y72.195
G1 F900 X54.686 Y71.038 E381.93616
G0 F10500 X55.009 Y70.478
G1 F900 X56.726 Y72.195 E382.03726
G0 F10500 X59.750 Y64.612
G1 F900 X42.321 Y47.183 E383.06357
G0 F10500 X41.864 Y46.726
G1 F900 X39.645 Y44.507 E383.19423
G0 F10500 X40.529 Y44.507
G1 F900 X42.187 Y46.165 E383.29187
G0 F10500 X42.511 Y45.605
G1 F900 X41.413 Y44.507 E383.35652
G0 F10500 X42.297 Y44.507
G1 F900 X42.834 Y45.044 E383.38814
G0 F10500 X42.347 Y46.752
G0 X43.204 Y47.183
G1 F900 X59.750 Y63.728 E384.36242
G0 F10500 X59.750 Y62.844
G1 F900 X44.088 Y47.183 E385.28465
G0 F10500 X44.972 Y47.183
G1 F900 X59.750 Y61.960 E386.15482
G0 F10500 X59.750 Y61.077
G1 F900 X45.856 Y47.183 E386.97297
G0 F10500 X46.740 Y47.183
G1 F900 X59.750 Y60.193 E387.73906
G0 F10500 X59.750 Y59.309
G1 F900 X47.624 Y47.183 E388.45310
G0 F10500 X48.508 Y47.183
G1 F900 X59.750 Y58.425 E389.11509
G0 F10500 X59.750 Y57.541
G1 F900 X49.392 Y47.183 E389.72502
G0 F10500 X50.275 Y47.183
G1 F900 X59.750 Y56.657 E390.28292
G0 F10500 X59.750 Y55.773
G1 F900 X51.159 Y47.183 E390.78877
G0 F10500 X52.043 Y47.183
G1 F900 X59.750 Y54.889 E391.24257
G0 F10500 X59.750 Y54.005
G1 F900 X52.927 Y47.183 E391.64431
G0 F10500 X53.811 Y47.183
G1 F900 X59.750 Y53.122 E391.99403
G0 F10500 X59.750 Y52.238
G1 F900 X54.695 Y47.183 E392.29170
G0 F10500 X55.535 Y47.139
G1 F900 X59.787 Y51.391 E392.54207
G0 F10500 X61.878 Y52.598
G1 F900 X54.331 Y45.051 E392.98648
G0 F10500 X54.672 Y44.508
G1 F900 X62.424 Y52.260 E393.44296
G0 F10500 X62.424 Y51.376
G1 F900 X55.555 Y44.508 E393.84741
G0 F10500 X56.439 Y44.508
G1 F900 X62.424 Y50.493 E394.19983
G0 F10500 X62.424 Y49.609
G1 F900 X57.323 Y44.508 E394.50021
G0 F10500 X58.207 Y44.508
G1 F900 X62.424 Y48.725 E394.74852
G0 F10500 X62.424 Y47.841
G1 F900 X59.091 Y44.508 E394.94479
G0 F10500 X59.975 Y44.508
G1 F900 X62.424 Y46.957 E395.08900
G0 F10500 X62.424 Y46.073
G1 F900 X60.859 Y44.508 E395.18115
G0 F10500 X61.743 Y44.508
G1 F900 X62.424 Y45.189 E395.22125
G0 F10500 X39.932 Y72.194
G1 F900 X31.737 Y64.000 E395.70378
G0 F10500 X31.737 Y64.884
G1 F900 X39.048 Y72.194 E396.13426
G0 F10500 X38.164 Y72.194
G1 F900 X31.737 Y65.768 E396.51269
G0 F10500 X31.737 Y66.651
G1 F900 X37.280 Y72.194 E396.83909
G0 F10500 X36.396 Y72.194
G1 F900 X31.737 Y67.535 E397.11343
G0 F10500 X31.737 Y68.419
G1 F900 X35.513 Y72.194 E397.33575
G0 F10500 X34.629 Y72.194
G1 F900 X31.737 Y69.303 E397.50602
G0 F10500 X31.737 Y70.187
G1 F900 X33.745 Y72.194 E397.62423
G0 F10500 X32.861 Y72.194
G1 F900 X31.737 Y71.071 E397.69039
G0 F10500 X31.737 Y71.955
G1 F900 X31.977 Y72.194 E397.70449
;LAYER:1
M106 S191
G1 F600 E396.20449
G1 Z0.525
G0 F10500 X30.734 Y39.107 Z0.805
;TYPE:WALL-INNER
G1 Z0.805
G1 F600 E397.70449
G1 F1140 X30.734 Y9.891 E398.57464
G1 X30.773 Y9.456 E398.58765
G1 X30.884 Y9.053 E398.60010
G1 X30.951 Y8.896 E398.60518
G1 X31.166 Y8.537 E398.61764
G1 X31.442 Y8.221 E398.63014
G1 X31.600 Y8.087 E398.63631
G1 X31.972 Y7.851 E398.64943
G1 X32.310 Y7.714 E398.66029
G1 X32.698 Y7.626 E398.67214
G1 X62.234 Y7.607 E399.55183
G1 X62.234 Y20.122 E399.92456
G1 X59.559 Y18.578 E400.01655
G1 X59.559 Y31.135 E400.39054
G1 X62.234 Y29.591 E400.48253
G1 X62.234 Y39.107 E400.76595
G1 X52.718 Y39.107 E401.04937
G1 X53.830 Y37.182 E401.11558
G1 X53.397 Y36.432 E401.14138
G1 X42.571 Y36.432 E401.46381
G1 X42.138 Y37.182 E401.48960
G1 X43.250 Y39.107 E401.55581
G1 X30.734 Y39.107 E401.92858
G0 F10500 X30.234 Y39.607
;TYPE:WALL-OUTER
G1 F1080 X30.234 Y9.868 E402.81431
G1 X30.279 Y9.367 E402.82929
G1 X30.412 Y8.885 E402.84418
G1 X30.504 Y8.670 E402.85115
G1 X30.760 Y8.240 E402.86605
G1 X31.086 Y7.868 E402.88079
G1 X31.306 Y7.682 E402.88937
G1 X31.729 Y7.413 E402.90430
G1 X31.906 Y7.327 E402.91016
G1 X32.170 Y7.233 E402.91850
G1 X32.621 Y7.131 E402.93228
G1 X62.734 Y7.107 E403.82914
G1 X62.734 Y20.988 E404.24257
G1 X60.059 Y19.444 E404.33456
G1 X60.059 Y30.269 E404.65696
G1 X62.734 Y28.725 E404.74895
G1 X62.734 Y39.607 E405.07305
G1 X51.852 Y39.607 E405.39716
G1 X53.253 Y37.182 E405.48057
G1 X53.108 Y36.932 E405.48917
G1 X42.860 Y36.932 E405.79439
G1 X42.715 Y37.182 E405.80300
G1 X44.116 Y39.607 E405.88641
G1 X30.234 Y39.607 E406.29987
G0 F10500 X30.909 Y38.740
;TYPE:SKIN
G1 F1380 X61.867 Y7.782 E407.60382
G0 F10500 X62.058 Y8.298
G1 F1380 X31.425 Y38.931 E408.89408
G0 F10500 X32.132 Y38.931
G1 F1380 X62.058 Y9.005 E410.15457
G0 F10500 X62.058 Y9.712
G1 F1380 X32.839 Y38.931 E411.38527
G0 F10500 X33.546 Y38.931
G1 F1380 X62.058 Y10.419 E412.58620
G0 F10500 X62.058 Y11.127
G1 F1380 X34.253 Y38.931 E413.75733
G0 F10500 X34.960 Y38.931
G1 F1380 X62.058 Y11.834 E414.89868
G0 F10500 X62.058 Y12.541
G1 F1380 X35.667 Y38.931 E416.01025
G0 F10500 X36.374 Y38.931
G1 F1380 X62.058 Y13.248 E417.09204
G0 F10500 X62.058 Y13.955
G1 F1380 X37.082 Y38.931 E418.14403
G0 F10500 X37.789 Y38.931
G1 F1380 X62.058 Y14.662 E419.16624
G0 F10500 X62.058 Y15.369
G1 F1380 X38.496 Y38.931 E420.15867
G0 F10500 X39.203 Y38.931
G1 F1380 X59.382 Y18.752 E421.00861
G0 F10500 X59.685 Y18.449
G1 F1380 X62.058 Y16.076 E421.10856
G0 F10500 X62.058 Y16.783
G1 F1380 X60.133 Y18.708 E421.18965
G0 F10500 X60.582 Y18.967
G1 F1380 X62.058 Y17.490 E421.25184
G0 F10500 X62.058 Y18.198
G1 F1380 X61.030 Y19.226 E421.29514
G0 F10500 X61.478 Y19.485
G1 F1380 X62.058 Y19.258 E421.31958
G1 X61.926 Y19.743 E421.33456
G0 F10500 X61.160 Y7.782
G1 F1380 X30.909 Y38.033 E422.60873
G0 F10500 X30.909 Y37.326
G1 F1380 X60.452 Y7.783 E423.85308
G0 F10500 X59.744 Y7.783
G1 F1380 X30.909 Y36.619 E425.06764
G0 F10500 X30.909 Y35.912
G1 F1380 X59.037 Y7.783 E426.25241
G0 F10500 X58.329 Y7.784
G1 F1380 X30.909 Y35.205 E427.40736
G0 F10500 X30.909 Y34.498
G1 F1380 X57.622 Y7.784 E428.53254
G0 F10500 X56.915 Y7.785
G1 F1380 X30.909 Y33.791 E429.62791
G0 F10500 X30.909 Y33.084
G1 F1380 X56.207 Y7.785 E430.69349
G0 F10500 X55.500 Y7.785
G1 F1380 X30.909 Y32.377 E431.72928
G0 F10500 X30.909 Y31.669
G1 F1380 X54.792 Y7.786 E432.73523
G0 F10500 X54.084 Y7.787
G1 F1380 X30.909 Y30.962 E433.71137
G0 F10500 X30.909 Y30.255
G1 F1380 X53.377 Y7.787 E434.65772
G0 F10500 X52.669 Y7.788
G1 F1380 X30.909 Y29.548 E435.57425
G0 F10500 X30.909 Y28.841
G1 F1380 X51.962 Y7.788 E436.46101
G0 F10500 X51.254 Y7.788
G1 F1380 X30.909 Y28.134 E437.31796
G0 F10500 X30.909 Y27.427
G1 F1380 X50.546 Y7.789 E438.14509
G0 F10500 X49.839 Y7.789
G1 F1380 X30.909 Y26.720 E438.94245
G0 F10500 X30.909 Y26.013
G1 F1380 X49.131 Y7.790 E439.70998
G0 F10500 X48.424 Y7.790
G1 F1380 X30.909 Y25.305 E440.44771
G0 F10500 X30.909 Y24.598
G1 F1380 X47.716 Y7.790 E441.15565
G0 F10500 X47.009 Y7.791
G1 F1380 X30.909 Y23.891 E441.83378
G0 F10500 X30.909 Y23.184
G1 F1380 X46.302 Y7.791 E442.48213
G0 F10500 X45.594 Y7.792
G1 F1380 X30.909 Y22.477 E443.10067
G0 F10500 X30.909 Y21.770
G1 F1380 X44.886 Y7.793 E443.68938
G0 F10500 X44.179 Y7.793
G1 F1380 X30.909 Y21.063 E444.24831
G0 F10500 X30.909 Y20.356
G1 F1380 X43.471 Y7.793 E444.77744
G0 F10500 X42.763 Y7.794
G1 F1380 X30.909 Y19.649 E445.27676
G0 F10500 X30.909 Y18.941
G1 F1380 X42.056 Y7.794 E445.74627
G0 F10500 X41.348 Y7.795
G1 F1380 X30.909 Y18.234 E446.18596
G0 F10500 X30.909 Y17.527
G1 F1380 X40.641 Y7.795 E446.59587
G0 F10500 X59.382 Y19.459
G1 F1380 X42.584 Y36.257 E447.30341
G0 F10500 X42.312 Y36.529
G1 F1380 X39.910 Y38.931 E447.40458
G0 F10500 X40.617 Y38.931
G1 F1380 X42.093 Y37.456 E447.46673
G0 F10500 X42.352 Y37.904
G1 F1380 X41.324 Y38.931 E447.51000
G0 F10500 X42.031 Y38.931
G1 F1380 X42.739 Y38.576 E447.53435
G1 X42.738 Y38.931 E447.54492
G0 F10500 X42.227 Y37.182
G0 X42.615 Y36.509
G0 X43.291 Y36.257
G1 F1380 X59.382 Y20.166 E448.22267
G0 F10500 X59.382 Y20.873
G1 F1380 X43.999 Y36.257 E448.87063
G0 F10500 X44.706 Y36.257
G1 F1380 X59.382 Y21.580 E449.48880
G0 F10500 X59.382 Y22.288
G1 F1380 X45.413 Y36.257 E450.07718
G0 F10500 X46.120 Y36.257
G1 F1380 X59.382 Y22.995 E450.63578
G0 F10500 X59.382 Y23.702
G1 F1380 X46.827 Y36.257 E451.16459
G0 F10500 X47.534 Y36.257
G1 F1380 X59.382 Y24.409 E451.66363
G0 F10500 X59.382 Y25.116
G1 F1380 X48.241 Y36.257 E452.13289
G0 F10500 X48.948 Y36.257
G1 F1380 X59.382 Y25.823 E452.57237
G0 F10500 X59.382 Y26.530
G1 F1380 X49.655 Y36.257 E452.98207
G0 F10500 X50.362 Y36.257
G1 F1380 X59.382 Y27.237 E453.36200
G0 F10500 X59.382 Y27.944
G1 F1380 X51.070 Y36.257 E453.71212
G0 F10500 X51.777 Y36.257
G1 F1380 X59.382 Y28.651 E454.03246
G0 F10500 X59.382 Y29.359
G1 F1380 X52.484 Y36.257 E454.32301
G0 F10500 X53.191 Y36.257
G1 F1380 X59.382 Y30.066 E454.58377
G0 F10500 X59.382 Y30.773
G1 F1380 X53.643 Y36.512 E454.82550
G0 F10500 X53.903 Y36.959
G1 F1380 X59.483 Y31.379 E455.06053
G0 F10500 X61.155 Y30.414
G1 F1380 X53.542 Y38.027 E455.38119
G0 F10500 X53.344 Y38.932
G1 F1380 X62.058 Y30.218 E455.74822
G0 F10500 X62.058 Y30.926
G1 F1380 X54.051 Y38.932 E456.08546
G0 F10500 X54.759 Y38.932
G1 F1380 X62.058 Y31.633 E456.39289
G0 F10500 X62.058 Y32.340
G1 F1380 X55.466 Y38.932 E456.67055
G0 F10500 X56.173 Y38.932
G1 F1380 X62.058 Y33.047 E456.91842
G0 F10500 X62.058 Y33.754
G1 F1380 X56.880 Y38.932 E457.13652
G0 F10500 X57.587 Y38.932
G1 F1380 X62.058 Y34.461 E457.32484
G0 F10500 X62.058 Y35.168
G1 F1380 X58.294 Y38.932 E457.48338
G0 F10500 X59.001 Y38.932
G1 F1380 X62.058 Y35.875 E457.61214
G0 F10500 X62.058 Y36.582
G1 F1380 X59.708 Y38.932 E457.71112
G0 F10500 X60.415 Y38.932
G1 F1380 X62.058 Y37.289 E457.78033
G0 F10500 X62.058 Y37.997
G1 F1380 X61.123 Y38.932 E457.81971
G0 F10500 X61.830 Y38.932
G1 F1380 X62.058 Y38.704 E457.82931
G0 F10500 X39.933 Y7.795
G1 F1380 X30.909 Y16.820 E458.20943
G0 F10500 X30.909 Y16.113
G1 F1380 X39.226 Y7.796 E458.55974
G0 F10500 X38.518 Y7.796
G1 F1380 X30.909 Y15.406 E458.88025
G0 F10500 X30.909 Y14.699
G1 F1380 X37.811 Y7.797 E459.17096
G0 F10500 X37.103 Y7.797
G1 F1380 X30.909 Y13.992 E459.43188
G0 F10500 X30.909 Y13.285
G1 F1380 X36.396 Y7.797 E459.66301
G0 F10500 X35.688 Y7.798
G1 F1380 X30.909 Y12.578 E459.86432
G0 F10500 X30.909 Y11.870
G1 F1380 X34.981 Y7.798 E460.03584
G0 F10500 X34.273 Y7.799
G1 F1380 X30.909 Y11.163 E460.17753
G0 F10500 X30.909 Y10.456
G1 F1380 X33.565 Y7.800 E460.28940
G0 F10500 X32.858 Y7.800
G1 F1380 X30.923 Y9.735 E460.37090
G0 F10500 X31.300 Y8.651
G1 F1380 X31.758 Y8.193 E460.39019
G1 F600 E458.89019
G1 Z0.905
G0 F10500 X66.413 Y8.839
;TYPE:WALL-INNER
G1 Z0.805
G1 F600 E460.39019
G1 F1140 X75.928 Y8.839 E460.67358
G1 X74.384 Y11.514 E460.76557
G1 X86.940 Y11.514 E461.13953
G1 X85.396 Y8.839 E461.23152
G1 X94.912 Y8.839 E461.51494
G1 X94.912 Y18.355 E461.79836
G1 X92.237 Y16.811 E461.89035
G1 X92.237 Y29.368 E462.26434
G1 X94.912 Y27.824 E462.35633
G1 X94.912 Y37.339 E462.63972
G1 X85.396 Y37.339 E462.92313
G1 X86.940 Y34.664 E463.01512
G1 X74.384 Y34.664 E463.38908
G1 X75.928 Y37.339 E463.48107
G1 X66.413 Y37.339 E463.76446
G1 X66.413 Y27.824 E464.04785
G1 X69.088 Y29.368 E464.13984
G1 X69.088 Y16.811 E464.51383
G1 X66.413 Y18.355 E464.60582
G1 X66.413 Y8.839 E464.88924
G0 F10500 X65.913 Y8.339
;TYPE:WALL-OUTER
G1 F1080 X76.794 Y8.339 E465.21331
G1 X75.250 Y11.014 E465.30530
G1 X86.074 Y11.014 E465.62768
G1 X84.530 Y8.339 E465.71967
G1 X95.412 Y8.339 E466.04377
G1 X95.412 Y19.221 E466.36787
G1 X92.737 Y17.677 E466.45986
G1 X92.737 Y28.502 E466.78227
G1 X95.412 Y26.958 E466.87425
G1 X95.412 Y37.839 E467.19833
G1 X84.530 Y37.839 E467.52243
G1 X86.074 Y35.164 E467.61442
G1 X75.250 Y35.164 E467.93680
G1 X76.794 Y37.839 E468.02878
G1 X65.913 Y37.839 E468.35286
G1 X65.913 Y26.958 E468.67693
G1 X68.588 Y28.502 E468.76892
G1 X68.588 Y17.677 E469.09133
G1 X65.913 Y19.221 E469.18331
G1 X65.913 Y8.339 E469.50742
G0 F10500 X66.587 Y9.426
;TYPE:SKIN
G1 F1380 X67.000 Y9.013 E469.52481
G0 F10500 X67.707 Y9.013
G1 F1380 X66.587 Y10.133 E469.57199
G0 F10500 X66.587 Y10.840
G1 F1380 X68.414 Y9.013 E469.64894
G0 F10500 X69.121 Y9.013
G1 F1380 X66.587 Y11.547 E469.75567
G0 F10500 X66.587 Y12.254
G1 F1380 X69.828 Y9.013 E469.89218
G0 F10500 X70.536 Y9.013
G1 F1380 X66.587 Y12.961 E470.05850
G0 F10500 X66.587 Y13.669
G1 F1380 X71.243 Y9.013 E470.25461
G0 F10500 X71.950 Y9.013
G1 F1380 X66.587 Y14.376 E470.48050
G0 F10500 X66.587 Y15.083
G1 F1380 X72.657 Y9.013 E470.73617
G0 F10500 X73.364 Y9.013
G1 F1380 X66.587 Y15.790 E471.02161
G0 F10500 X66.587 Y16.497
G1 F1380 X74.071 Y9.013 E471.33684
G0 F10500 X74.778 Y9.013
G1 F1380 X66.587 Y17.204 E471.68184
G0 F10500 X66.587 Y17.911
G1 F1380 X75.485 Y9.013 E472.05663
G0 F10500 X74.847 Y10.358
G1 F1380 X67.928 Y17.278 E472.34808
G0 F10500 X69.262 Y17.358
G1 F1380 X74.931 Y11.689 E472.58686
G0 F10500 X75.638 Y11.689
G1 F1380 X69.262 Y18.065 E472.85542
G0 F10500 X69.262 Y18.772
G1 F1380 X76.345 Y11.689 E473.15375
G0 F10500 X77.052 Y11.689
G1 F1380 X69.262 Y19.479 E473.48187
G0 F10500 X69.262 Y20.186
G1 F1380 X77.759 Y11.689 E473.83976
G0 F10500 X78.466 Y11.689
G1 F1380 X69.262 Y20.893 E474.22743
G0 F10500 X69.262 Y21.600
G1 F1380 X79.174 Y11.689 E474.64491
G0 F10500 X79.881 Y11.689
G1 F1380 X69.262 Y22.307 E475.09216
G0 F10500 X69.262 Y23.014
G1 F1380 X80.588 Y11.689 E475.56919
G0 F10500 X81.295 Y11.689
G1 F1380 X69.262 Y23.722 E476.07602
G0 F10500 X69.262 Y24.429
G1 F1380 X82.002 Y11.689 E476.61263
G0 F10500 X82.709 Y11.689
G1 F1380 X69.262 Y25.136 E477.17902
G0 F10500 X69.262 Y25.843
G1 F1380 X83.416 Y11.689 E477.77519
G0 F10500 X84.123 Y11.689
G1 F1380 X69.262 Y26.550 E478.40113
G0 F10500 X69.262 Y27.257
G1 F1380 X84.830 Y11.689 E479.05686
G0 F10500 X85.538 Y11.689
G1 F1380 X69.262 Y27.964 E479.74238
G0 F10500 X69.262 Y28.671
G1 F1380 X86.245 Y11.689 E480.45769
G0 F10500 X86.952 Y11.689
G1 F1380 X69.262 Y29.378 E481.20277
G0 F10500 X69.077 Y29.564
G1 F1380 X66.587 Y32.053 E481.30763
G0 F10500 X66.587 Y32.760
G1 F1380 X90.334 Y9.014 E482.30783
G0 F10500 X91.041 Y9.014
G1 F1380 X66.587 Y33.468 E483.33783
G0 F10500 X66.587 Y34.175
G1 F1380 X91.748 Y9.014 E484.39762
G0 F10500 X92.455 Y9.014
G1 F1380 X66.587 Y34.882 E485.48718
G0 F10500 X66.587 Y35.589
G1 F1380 X93.162 Y9.014 E486.60652
G0 F10500 X93.869 Y9.014
G1 F1380 X66.587 Y36.296 E487.75564
G0 F10500 X66.587 Y37.003
G1 F1380 X94.576 Y9.014 E488.93454
G0 F10500 X94.736 Y9.562
G1 F1380 X67.134 Y37.164 E490.09714
G0 F10500 X67.841 Y37.164
G1 F1380 X94.736 Y10.269 E491.22995
G0 F10500 X94.736 Y10.976
G1 F1380 X68.548 Y37.164 E492.33300
G0 F10500 X69.255 Y37.164
G1 F1380 X94.736 Y11.683 E493.40626
G0 F10500 X94.736 Y12.390
G1 F1380 X69.962 Y37.164 E494.44974
G0 F10500 X70.669 Y37.164
G1 F1380 X94.736 Y13.097 E495.46344
G0 F10500 X94.736 Y13.804
G1 F1380 X71.376 Y37.164 E496.44737
G0 F10500 X72.083 Y37.164
G1 F1380 X74.328 Y34.919 E496.54193
G0 F10500 X74.587 Y35.368
G1 F1380 X72.790 Y37.164 E496.61760
G0 F10500 X73.498 Y37.164
G1 F1380 X74.845 Y35.816 E496.67435
G0 F10500 X75.104 Y36.264
G1 F1380 X74.205 Y37.164 E496.71224
G0 F10500 X74.912 Y37.164
G1 F1380 X75.363 Y36.712 E496.73126
G0 F10500 X74.644 Y34.814
G0 X75.465 Y34.489
G1 F1380 X92.061 Y17.894 E497.43026
G0 F10500 X92.061 Y18.601
G1 F1380 X76.173 Y34.489 E498.09946
G0 F10500 X76.880 Y34.489
G1 F1380 X92.061 Y19.308 E498.73889
G0 F10500 X92.061 Y17.186
G1 F1380 X74.758 Y34.489 E499.46769
G0 F10500 X77.587 Y34.489
G1 F1380 X92.061 Y20.015 E500.07734
G0 F10500 X92.061 Y20.722
G1 F1380 X78.294 Y34.489 E500.65720
G0 F10500 X79.001 Y34.489
G1 F1380 X92.061 Y21.429 E501.20729
G0 F10500 X92.061 Y22.136
G1 F1380 X79.708 Y34.489 E501.72760
G0 F10500 X68.628 Y29.305
G1 F1380 X66.587 Y31.346 E501.81357
G0 F10500 X66.587 Y30.639
G1 F1380 X68.180 Y29.046 E501.88067
G0 F10500 X67.733 Y28.787
G1 F1380 X66.587 Y29.932 E501.92891
G0 F10500 X66.587 Y29.225
G1 F1380 X67.060 Y28.398 E501.95825
G1 X66.587 Y28.518 E501.97279
G0 F10500 X68.938 Y29.108
G0 X69.262 Y16.650
G1 F1380 X74.224 Y11.689 E502.18177
G0 F10500 X86.680 Y11.364
G0 X85.842 Y9.263
G1 F1380 X86.096 Y9.362 E502.19227
G1 X86.798 Y9.014 E502.21561
G0 F10500 X87.505 Y9.014
G1 F1380 X86.360 Y10.159 E502.26384
G0 F10500 X86.619 Y10.608
G1 F1380 X88.212 Y9.014 E502.33095
G0 F10500 X88.920 Y9.014
G1 F1380 X86.877 Y11.056 E502.41698
G0 F10500 X87.136 Y11.505
G1 F1380 X89.627 Y9.014 E502.52191
G0 F10500 X94.736 Y14.511
G1 F1380 X92.490 Y16.757 E502.61651
G0 F10500 X92.939 Y17.015
G1 F1380 X94.736 Y15.219 E502.69218
G0 F10500 X94.736 Y15.926
G1 F1380 X93.387 Y17.274 E502.74897
G0 F10500 X93.836 Y17.532
G1 F1380 X94.736 Y16.633 E502.78686
G0 F10500 X94.736 Y17.340
G1 F1380 X94.284 Y17.791 E502.80588
G0 F10500 X92.387 Y17.071
G0 X92.061 Y22.843
G1 F1380 X80.415 Y34.489 E503.29641
G0 F10500 X81.122 Y34.489
G1 F1380 X92.061 Y23.550 E503.75716
G0 F10500 X92.061 Y24.258
G1 F1380 X81.829 Y34.489 E504.18811
G0 F10500 X82.537 Y34.489
G1 F1380 X92.061 Y24.965 E504.58926
G0 F10500 X92.061 Y25.672
G1 F1380 X83.244 Y34.489 E504.96064
G0 F10500 X83.951 Y34.489
G1 F1380 X92.061 Y26.379 E505.30223
G0 F10500 X92.061 Y27.086
G1 F1380 X84.658 Y34.489 E505.61404
G0 F10500 X85.365 Y34.489
G1 F1380 X92.061 Y27.793 E505.89608
G0 F10500 X92.061 Y28.500
G1 F1380 X86.072 Y34.489 E506.14834
G0 F10500 X86.779 Y34.489
G1 F1380 X92.061 Y29.207 E506.37082
G0 F10500 X92.638 Y29.337
G1 F1380 X86.908 Y35.067 E506.61216
G0 F10500 X85.943 Y36.739
G1 F1380 X94.311 Y28.371 E506.96462
G0 F10500 X94.736 Y28.654
G1 F1380 X86.226 Y37.164 E507.32307
G0 F10500 X86.933 Y37.164
G1 F1380 X94.736 Y29.361 E507.65173
G0 F10500 X94.736 Y30.068
G1 F1380 X87.640 Y37.164 E507.95061
G0 F10500 X88.347 Y37.164
G1 F1380 X94.736 Y30.775 E508.21972
G0 F10500 X94.736 Y31.482
G1 F1380 X89.054 Y37.164 E508.45904
G0 F10500 X89.761 Y37.164
G1 F1380 X94.736 Y32.189 E508.66859
G0 F10500 X94.736 Y32.896
G1 F1380 X90.468 Y37.164 E508.84836
G0 F10500 X91.175 Y37.164
G1 F1380 X94.736 Y33.603 E508.99835
G0 F10500 X94.736 Y34.310
G1 F1380 X91.882 Y37.164 E509.11856
G0 F10500 X92.589 Y37.164
G1 F1380 X94.736 Y35.018 E509.20897
G0 F10500 X94.736 Y35.725
G1 F1380 X93.297 Y37.164 E509.26958
G0 F10500 X94.004 Y37.164
G1 F1380 X94.736 Y36.432 E509.30041
G1 F600 E507.80041
G1 Z0.905
G0 F10500 X100.250 Y38.300
;TYPE:WALL-INNER
G1 Z0.805
G1 F600 E509.30041
G1 F1140 X100.250 Y28.784 E509.58383
G1 X102.925 Y30.328 E509.67582
G1 X102.925 Y17.771 E510.04981
G1 X100.250 Y19.315 E510.14180
G1 X100.250 Y6.800 E510.51454
G1 X129.466 Y6.800 E511.38469
G1 X129.901 Y6.839 E511.39770
G1 X130.292 Y6.947 E511.40978
G1 X130.654 Y7.120 E511.42173
G1 X130.806 Y7.220 E511.42715
G1 X131.125 Y7.498 E511.43975
G1 X131.375 Y7.813 E511.45173
G1 X131.565 Y8.166 E511.46367
G1 X131.696 Y8.566 E511.47620
G1 X131.747 Y8.949 E511.48771
G1 X131.750 Y38.300 E512.36188
G1 X119.234 Y38.300 E512.73465
G1 X120.778 Y35.625 E512.82664
G1 X108.221 Y35.625 E513.20063
G1 X109.765 Y38.300 E513.29262
G1 X100.250 Y38.300 E513.57601
G0 F10500 X99.750 Y38.800
;TYPE:WALL-OUTER
G1 F1080 X99.750 Y27.918 E513.90011
G1 X102.425 Y29.462 E513.99210
G1 X102.425 Y18.637 E514.31451
G1 X99.750 Y20.181 E514.40650
G1 X99.750 Y6.300 E514.81992
G1 X129.489 Y6.300 E515.70565
G1 X129.991 Y6.345 E515.72066
G1 X130.465 Y6.476 E515.73531
G1 X130.916 Y6.693 E515.75021
G1 X131.110 Y6.820 E515.75712
G1 X131.485 Y7.148 E515.77196
G1 X131.794 Y7.537 E515.78675
G1 X132.026 Y7.967 E515.80130
G1 X132.182 Y8.446 E515.81631
G1 X132.247 Y8.926 E515.83074
G1 X132.250 Y38.800 E516.72048
G1 X118.368 Y38.800 E517.13394
G1 X119.912 Y36.125 E517.22593
G1 X109.087 Y36.125 E517.54833
G1 X110.631 Y38.800 E517.64032
G1 X99.750 Y38.800 E517.96439
G0 F10500 X100.424 Y37.815
;TYPE:SKIN
G1 F1380 X130.796 Y7.443 E519.24366
G0 F10500 X131.142 Y7.804
G1 F1380 X100.821 Y38.125 E520.52079
G0 F10500 X101.528 Y38.125
G1 F1380 X131.405 Y8.248 E521.77921
G0 F10500 X131.550 Y8.810
G1 F1380 X102.235 Y38.125 E523.01396
G0 F10500 X102.942 Y38.125
G1 F1380 X131.571 Y9.496 E524.21981
G0 F10500 X131.571 Y10.203
G1 F1380 X103.649 Y38.125 E525.39589
G0 F10500 X104.356 Y38.125
G1 F1380 X131.571 Y10.910 E526.54219
G0 F10500 X131.571 Y11.617
G1 F1380 X105.064 Y38.125 E527.65868
G0 F10500 X105.771 Y38.125
G1 F1380 X108.110 Y35.785 E527.75722
G0 F10500 X108.446 Y35.450
G1 F1380 X131.571 Y12.324 E528.73127
G0 F10500 X131.571 Y13.031
G1 F1380 X109.153 Y35.450 E529.67554
G0 F10500 X109.860 Y35.450
G1 F1380 X131.571 Y13.739 E530.59001
G0 F10500 X131.571 Y14.446
G1 F1380 X110.567 Y35.450 E531.47470
G0 F10500 X111.274 Y35.450
G1 F1380 X131.572 Y15.152 E532.32965
G0 F10500 X131.572 Y15.859
G1 F1380 X111.981 Y35.450 E533.15483
G0 F10500 X112.688 Y35.450
G1 F1380 X131.572 Y16.566 E533.95022
G0 F10500 X131.572 Y17.273
G1 F1380 X113.395 Y35.450 E534.71584
G0 F10500 X114.102 Y35.450
G1 F1380 X131.572 Y17.981 E535.45165
G0 F10500 X131.572 Y18.688
G1 F1380 X114.810 Y35.450 E536.15767
G0 F10500 X115.517 Y35.450
G1 F1380 X131.572 Y19.395 E536.83391
G0 F10500 X130.358 Y7.173
G1 F1380 X100.424 Y37.108 E538.09475
G0 F10500 X100.424 Y36.401
G1 F1380 X129.818 Y7.006 E539.33285
G0 F10500 X129.143 Y6.974
G1 F1380 X100.424 Y35.694 E540.54252
G0 F10500 X100.424 Y34.986
G1 F1380 X128.436 Y6.974 E541.72238
G0 F10500 X127.728 Y6.974
G1 F1380 X100.424 Y34.279 E542.87245
G0 F10500 X100.424 Y33.572
G1 F1380 X127.021 Y6.974 E543.99274
G0 F10500 X126.314 Y6.974
G1 F1380 X103.099 Y30.189 E544.97056
G0 F10500 X102.820 Y30.469
G1 F1380 X100.424 Y32.865 E545.07148
G0 F10500 X100.424 Y32.158
G1 F1380 X102.372 Y30.210 E545.15353
G0 F10500 X101.923 Y29.951
G1 F1380 X100.424 Y31.451 E545.21668
G0 F10500 X100.424 Y30.744
G1 F1380 X101.475 Y29.692 E545.26097
G0 F10500 X101.027 Y29.434
G1 F1380 X100.424 Y29.683 E545.28635
G1 X100.578 Y29.175 E545.30216
G0 F10500 X102.775 Y30.068
G0 X103.099 Y29.482
G1 F1380 X125.607 Y6.974 E546.25020
G0 F10500 X124.900 Y6.974
G1 F1380 X103.099 Y28.775 E547.16846
G0 F10500 X103.099 Y28.068
G1 F1380 X124.193 Y6.974 E548.05694
G0 F10500 X123.486 Y6.974
G1 F1380 X103.099 Y27.361 E548.91564
G0 F10500 X103.099 Y26.654
G1 F1380 X122.779 Y6.974 E549.74456
G0 F10500 X122.072 Y6.974
G1 F1380 X103.099 Y25.947 E550.54371
G0 F10500 X103.099 Y25.240
G1 F1380 X121.364 Y6.974 E551.31305
G0 F10500 X120.657 Y6.974
G1 F1380 X103.099 Y24.533 E552.05262
G0 F10500 X103.099 Y23.825
G1 F1380 X119.950 Y6.974 E552.76238
G0 F10500 X119.243 Y6.974
G1 F1380 X103.099 Y23.118 E553.44237
G0 F10500 X103.099 Y22.411
G1 F1380 X118.536 Y6.974 E554.09257
G0 F10500 X117.829 Y6.974
G1 F1380 X103.099 Y21.704 E554.71300
G0 F10500 X103.099 Y20.997
G1 F1380 X117.122 Y6.974 E555.30365
G0 F10500 X116.415 Y6.974
G1 F1380 X103.099 Y20.290 E555.86452
G0 F10500 X108.369 Y36.234
G1 F1380 X106.478 Y38.125 E555.94417
G0 F10500 X107.185 Y38.125
G1 F1380 X108.627 Y36.682 E556.00493
G0 F10500 X108.886 Y37.130
G1 F1380 X107.892 Y38.125 E556.04682
G0 F10500 X108.599 Y38.125
G1 F1380 X109.274 Y37.803 E556.06981
G1 X109.306 Y38.125 E556.07944
G0 F10500 X108.481 Y35.775
G0 X116.224 Y35.450
G1 F1380 X131.572 Y20.102 E556.72590
G0 F10500 X131.572 Y20.808
G1 F1380 X116.931 Y35.450 E557.34260
G0 F10500 X117.638 Y35.450
G1 F1380 X131.572 Y21.515 E557.92952
G0 F10500 X131.572 Y22.222
G1 F1380 X118.345 Y35.450 E558.48667
G0 F10500 X119.052 Y35.450
G1 F1380 X131.572 Y22.930 E559.01401
G0 F10500 X131.572 Y23.637
G1 F1380 X119.759 Y35.450 E559.51158
G0 F10500 X120.518 Y35.775
G0 X119.986 Y37.344
G1 F1380 X131.572 Y25.758 E559.99958
G0 F10500 X131.573 Y26.464
G1 F1380 X119.913 Y38.125 E560.49072
G0 F10500 X120.620 Y38.125
G1 F1380 X131.573 Y27.171 E560.95208
G0 F10500 X131.573 Y27.879
G1 F1380 X121.327 Y38.125 E561.38364
G0 F10500 X122.034 Y38.125
G1 F1380 X131.573 Y28.586 E561.78543
G0 F10500 X131.573 Y29.293
G1 F1380 X122.741 Y38.125 E562.15743
G0 F10500 X123.448 Y38.125
G1 F1380 X131.573 Y30.000 E562.49966
G0 F10500 X131.573 Y30.707
G1 F1380 X124.155 Y38.125 E562.81210
G0 F10500 X124.863 Y38.125
G1 F1380 X131.573 Y31.414 E563.09475
G0 F10500 X131.573 Y32.121
G1 F1380 X125.570 Y38.125 E563.34762
G0 F10500 X126.277 Y38.125
G1 F1380 X131.574 Y32.828 E563.57073
G0 F10500 X131.574 Y33.535
G1 F1380 X126.984 Y38.125 E563.76406
G0 F10500 X127.691 Y38.125
G1 F1380 X131.574 Y34.242 E563.92761
G0 F10500 X131.574 Y34.949
G1 F1380 X128.398 Y38.125 E564.06138
G0 F10500 X129.105 Y38.125
G1 F1380 X131.574 Y35.656 E564.16538
G0 F10500 X131.574 Y36.363
G1 F1380 X129.812 Y38.125 E564.23959
G0 F10500 X130.519 Y38.125
G1 F1380 X131.574 Y37.070 E564.28403
G0 F10500 X131.574 Y37.777
G1 F1380 X131.226 Y38.125 E564.29869
G0 F10500 X120.953 Y35.670
G1 F1380 X131.572 Y25.051 E564.74596
G0 F10500 X131.572 Y24.344
G1 F1380 X120.466 Y35.450 E565.21375
G0 F10500 X103.099 Y19.583
G1 F1380 X115.708 Y6.974 E565.74484
G0 F10500 X115.001 Y6.974
G1 F1380 X103.099 Y18.876 E566.24615
G0 F10500 X103.099 Y18.169
G1 F1380 X114.293 Y6.974 E566.71767
G0 F10500 X113.586 Y6.974
G1 F1380 X103.085 Y17.476 E567.15999
G0 F10500 X101.413 Y18.441
G1 F1380 X112.879 Y6.974 E567.64296
G0 F10500 X112.172 Y6.974
G1 F1380 X100.424 Y18.722 E568.13779
G0 F10500 X100.424 Y18.015
G1 F1380 X111.465 Y6.974 E568.60283
G0 F10500 X110.758 Y6.974
G1 F1380 X100.424 Y17.308 E569.03810
G0 F10500 X100.424 Y16.601
G1 F1380 X110.051 Y6.974 E569.44359
G0 F10500 X109.344 Y6.974
G1 F1380 X100.424 Y15.894 E569.81930
G0 F10500 X100.424 Y15.187
G1 F1380 X108.637 Y6.974 E570.16523
G0 F10500 X107.929 Y6.974
G1 F1380 X100.424 Y14.480 E570.48137
G0 F10500 X100.424 Y13.773
G1 F1380 X107.222 Y6.974 E570.76772
G0 F10500 X106.515 Y6.974
G1 F1380 X100.424 Y13.065 E571.02427
G0 F10500 X100.424 Y12.358
G1 F1380 X105.808 Y6.974 E571.25105
G0 F10500 X105.101 Y6.974
G1 F1380 X100.424 Y11.651 E571.44804
G0 F10500 X100.424 Y10.944
G1 F1380 X104.394 Y6.974 E571.61526
G0 F10500 X103.687 Y6.974
G1 F1380 X100.424 Y10.237 E571.75270
G0 F10500 X100.424 Y9.530
G1 F1380 X102.980 Y6.974 E571.86036
G0 F10500 X102.273 Y6.974
G1 F1380 X100.424 Y8.823 E571.93824
G0 F10500 X100.424 Y8.116
G1 F1380 X101.565 Y6.974 E571.98632
G0 F10500 X100.858 Y6.974
G1 F1380 X100.424 Y7.409 E572.00462
G1 F600 E570.50462
G1 Z0.905
G0 F10500 X99.793 Y44.846
;TYPE:WALL-INNER
G1 Z0.805
G1 F600 E572.00462
G1 F1140 X109.309 Y44.846 E572.28804
G1 X108.197 Y46.771 E572.35425
G1 X108.630 Y47.521 E572.38004
G1 X120.321 Y47.521 E572.72824
G1 X118.777 Y44.846 E572.82023
G1 X131.293 Y44.846 E573.19300
G1 X131.293 Y73.346 E574.04182
G1 X118.777 Y73.346 E574.41459
G1 X120.321 Y70.671 E574.50658
G1 X108.630 Y70.671 E574.85478
G1 X108.197 Y71.421 E574.88057
G1 X109.309 Y73.346 E574.94678
G1 X99.793 Y73.346 E575.23020
G1 X99.793 Y63.831 E575.51359
G1 X102.468 Y65.375 E575.60558
G1 X102.468 Y52.818 E575.97957
G1 X99.793 Y54.362 E576.07156
G1 X99.793 Y44.846 E576.35498
G0 F10500 X99.293 Y44.346
;TYPE:WALL-OUTER
G1 F1080 X110.175 Y44.346 E576.67908
G1 X108.774 Y46.771 E576.76249
G1 X108.919 Y47.021 E576.77110
G1 X119.455 Y47.021 E577.08490
G1 X117.911 Y44.346 E577.17689
G1 X131.793 Y44.346 E577.59034
G1 X131.793 Y73.846 E578.46895
G1 X117.911 Y73.846 E578.88240
G1 X119.455 Y71.171 E578.97439
G1 X108.919 Y71.171 E579.28819
G1 X108.774 Y71.421 E579.29680
G1 X110.175 Y73.846 E579.38021
G1 X99.293 Y73.846 E579.70431
G1 X99.293 Y62.965 E580.02838
G1 X101.968 Y64.509 E580.12037
G1 X101.968 Y53.684 E580.44278
G1 X99.293 Y55.228 E580.53477
G1 X99.293 Y44.346 E580.85887
G0 F10500 X100.289 Y45.020
;TYPE:SKIN
G1 F1380 X99.967 Y45.343 E580.87246
G0 F10500 X99.967 Y46.050
G1 F1380 X100.996 Y45.020 E580.91582
G0 F10500 X101.703 Y45.020
G1 F1380 X99.967 Y46.757 E580.98896
G0 F10500 X99.967 Y47.464
G1 F1380 X102.410 Y45.020 E581.09188
G0 F10500 X103.118 Y45.020
G1 F1380 X99.967 Y48.171 E581.22460
G0 F10500 X99.967 Y48.878
G1 F1380 X103.825 Y45.020 E581.38710
G0 F10500 X104.532 Y45.020
G1 F1380 X99.967 Y49.585 E581.57938
G0 F10500 X99.967 Y50.292
G1 F1380 X105.239 Y45.020 E581.80143
G0 F10500 X105.946 Y45.020
G1 F1380 X99.967 Y51.000 E582.05329
G0 F10500 X99.967 Y51.707
G1 F1380 X106.653 Y45.020 E582.33493
G0 F10500 X107.360 Y45.020
G1 F1380 X99.967 Y52.414 E582.64634
G0 F10500 X99.967 Y53.121
G1 F1380 X108.067 Y45.020 E582.98754
G0 F10500 X108.774 Y45.020
G1 F1380 X99.967 Y53.828 E583.35851
G0 F10500 X101.093 Y53.409
G1 F1380 X108.354 Y46.148 E583.66434
G0 F10500 X108.156 Y47.053
G1 F1380 X102.642 Y52.567 E583.89659
G0 F10500 X102.642 Y53.274
G1 F1380 X108.416 Y47.500 E584.13979
G0 F10500 X108.928 Y47.695
G1 F1380 X102.642 Y53.981 E584.40456
G0 F10500 X102.642 Y54.689
G1 F1380 X109.635 Y47.695 E584.69913
G0 F10500 X110.342 Y47.695
G1 F1380 X102.642 Y55.396 E585.02347
G0 F10500 X102.642 Y56.103
G1 F1380 X111.049 Y47.695 E585.37760
G0 F10500 X111.756 Y47.695
G1 F1380 X102.642 Y56.810 E585.76150
G0 F10500 X102.642 Y57.517
G1 F1380 X112.463 Y47.695 E586.17518
G0 F10500 X113.171 Y47.695
G1 F1380 X102.642 Y58.224 E586.61866
G0 F10500 X102.642 Y58.931
G1 F1380 X113.878 Y47.695 E587.09192
G0 F10500 X114.585 Y47.695
G1 F1380 X102.642 Y59.638 E587.59496
G0 F10500 X102.642 Y60.345
G1 F1380 X115.292 Y47.695 E588.12778
G0 F10500 X115.999 Y47.695
G1 F1380 X102.642 Y61.053 E588.69040
G0 F10500 X102.642 Y61.760
G1 F1380 X116.706 Y47.695 E589.28280
G0 F10500 X117.413 Y47.695
G1 F1380 X102.642 Y62.467 E589.90498
G0 F10500 X102.642 Y63.174
G1 F1380 X118.120 Y47.695 E590.55693
G0 F10500 X118.827 Y47.695
G1 F1380 X102.642 Y63.881 E591.23867
G0 F10500 X102.642 Y64.588
G1 F1380 X119.534 Y47.695 E591.95018
G0 F10500 X119.966 Y46.557
G1 F1380 X121.502 Y45.020 E592.01490
G0 F10500 X122.209 Y45.020
G1 F1380 X120.225 Y47.005 E592.09848
G0 F10500 X120.483 Y47.453
G1 F1380 X122.917 Y45.020 E592.20098
G0 F10500 X123.624 Y45.020
G1 F1380 X99.967 Y68.677 E593.19742
G0 F10500 X99.967 Y69.384
G1 F1380 X124.331 Y45.020 E594.22363
G0 F10500 X125.038 Y45.020
G1 F1380 X99.967 Y70.091 E595.27962
G0 F10500 X99.967 Y70.799
G1 F1380 X125.745 Y45.020 E596.36541
G0 F10500 X126.452 Y45.020
G1 F1380 X99.967 Y71.506 E597.48099
G0 F10500 X99.967 Y72.213
G1 F1380 X127.159 Y45.020 E598.62634
G0 F10500 X127.866 Y45.020
G1 F1380 X99.967 Y72.920 E599.80146
G0 F10500 X99.967 Y67.970
G1 F1380 X102.400 Y65.537 E599.90394
G0 F10500 X102.642 Y65.295
G1 F1380 X120.242 Y47.695 E600.64525
G0 F10500 X119.707 Y46.109
G1 F1380 X120.795 Y45.020 E600.69110
G0 F10500 X120.088 Y45.020
G1 F1380 X119.318 Y45.436 E600.71805
G1 X119.381 Y45.020 E600.73059
G0 F10500 X128.573 Y45.020
G1 F1380 X100.423 Y73.171 E601.91629
G0 F10500 X101.130 Y73.171
G1 F1380 X129.281 Y45.020 E603.10201
G0 F10500 X129.988 Y45.020
G1 F1380 X101.837 Y73.171 E604.28773
G0 F10500 X102.544 Y73.171
G1 F1380 X130.695 Y45.020 E605.47345
G0 F10500 X131.117 Y45.305
G1 F1380 X103.251 Y73.171 E606.64717
G0 F10500 X103.958 Y73.171
G1 F1380 X131.117 Y46.012 E607.79111
G0 F10500 X131.117 Y46.719
G1 F1380 X104.665 Y73.171 E608.90527
G0 F10500 X105.373 Y73.171
G1 F1380 X131.117 Y47.427 E609.98961
G0 F10500 X131.117 Y48.134
G1 F1380 X108.755 Y70.496 E610.93150
G0 F10500 X109.462 Y70.496
G1 F1380 X131.117 Y48.841 E611.84361
G0 F10500 X131.117 Y49.548
G1 F1380 X110.169 Y70.496 E612.72594
G0 F10500 X110.876 Y70.496
G1 F1380 X131.117 Y50.255 E613.57849
G0 F10500 X131.117 Y50.962
G1 F1380 X111.583 Y70.496 E614.40126
G0 F10500 X112.290 Y70.496
G1 F1380 X131.117 Y51.669 E615.19426
G0 F10500 X131.117 Y52.376
G1 F1380 X112.997 Y70.496 E615.95747
G0 F10500 X113.704 Y70.496
G1 F1380 X131.117 Y53.083 E616.69091
G0 F10500 X131.117 Y53.791
G1 F1380 X114.411 Y70.496 E617.39455
G0 F10500 X115.119 Y70.496
G1 F1380 X131.117 Y54.498 E618.06838
G0 F10500 X131.117 Y55.205
G1 F1380 X115.826 Y70.496 E618.71244
G0 F10500 X116.533 Y70.496
G1 F1380 X131.117 Y55.912 E619.32672
G0 F10500 X131.117 Y56.619
G1 F1380 X117.240 Y70.496 E619.91122
G0 F10500 X117.947 Y70.496
G1 F1380 X131.117 Y57.326 E620.46594
G0 F10500 X131.117 Y58.033
G1 F1380 X118.654 Y70.496 E620.99088
G0 F10500 X119.361 Y70.496
G1 F1380 X131.117 Y58.740 E621.48605
G0 F10500 X131.117 Y59.447
G1 F1380 X120.068 Y70.496 E621.95143
G0 F10500 X120.414 Y70.857
G1 F1380 X131.117 Y60.154 E622.40224
G0 F10500 X131.117 Y60.862
G1 F1380 X119.448 Y72.530 E622.89372
G0 F10500 X119.515 Y73.171
G1 F1380 X131.117 Y61.569 E623.38240
G0 F10500 X131.117 Y62.276
G1 F1380 X120.222 Y73.171 E623.84130
G0 F10500 X120.929 Y73.171
G1 F1380 X131.117 Y62.983 E624.27041
G0 F10500 X131.117 Y63.690
G1 F1380 X121.636 Y73.171 E624.66975
G0 F10500 X122.343 Y73.171
G1 F1380 X131.117 Y64.397 E625.03932
G0 F10500 X131.117 Y65.104
G1 F1380 X123.050 Y73.171 E625.37910
G0 F10500 X123.757 Y73.171
G1 F1380 X131.117 Y65.811 E625.68910
G0 F10500 X131.117 Y66.518
G1 F1380 X124.464 Y73.171 E625.96933
G0 F10500 X125.172 Y73.171
G1 F1380 X131.117 Y67.226 E626.21973
G0 F10500 X131.117 Y67.933
G1 F1380 X125.879 Y73.171 E626.44036
G0 F10500 X126.586 Y73.171
G1 F1380 X131.117 Y68.640 E626.63120
G0 F10500 X131.117 Y69.347
G1 F1380 X127.293 Y73.171 E626.79227
G0 F10500 X128.000 Y73.171
G1 F1380 X131.117 Y70.054 E626.92356
G0 F10500 X131.117 Y70.761
G1 F1380 X128.707 Y73.171 E627.02507
G0 F10500 X129.414 Y73.171
G1 F1380 X131.117 Y71.468 E627.09680
G0 F10500 X131.117 Y72.175
G1 F1380 X130.121 Y73.171 E627.13875
G0 F10500 X130.828 Y73.171
G1 F1380 X131.117 Y72.882 E627.15092
G0 F10500 X120.061 Y70.821
G0 X108.674 Y70.748
G0 X108.286 Y71.421
G0 X108.710 Y72.662
G1 F1380 X108.201 Y73.171 E627.17236
G0 F10500 X107.494 Y73.171
G1 F1380 X108.451 Y72.213 E627.21269
G0 F10500 X108.192 Y71.765
G1 F1380 X106.787 Y73.171 E627.27189
G0 F10500 X106.080 Y73.171
G1 F1380 X108.219 Y71.032 E627.36198
G0 F10500 X101.952 Y65.278
G1 F1380 X99.967 Y67.263 E627.44559
G0 F10500 X99.967 Y66.556
G1 F1380 X101.503 Y65.019 E627.51031
G0 F10500 X101.055 Y64.761
G1 F1380 X99.967 Y65.849 E627.55614
G0 F10500 X99.967 Y65.142
G1 F1380 X100.382 Y64.372 E627.58308
G1 X99.967 Y64.435 E627.59558
G1 F600 E626.09558
G1 Z0.905
G0 F10500 X94.975 Y61.738
;TYPE:WALL-INNER
G1 Z0.805
G1 F600 E627.59558
G1 F1140 X94.975 Y74.254 E627.96835
G1 X66.476 Y74.254 E628.81714
G1 X66.476 Y61.738 E629.18991
G1 X68.401 Y62.850 E629.25612
G1 X69.151 Y62.417 E629.28192
G1 X69.151 Y50.726 E629.63011
G1 X66.476 Y52.270 E629.72210
G1 X66.476 Y42.754 E630.00552
G1 X75.991 Y42.754 E630.28891
G1 X74.447 Y45.429 E630.38090
G1 X87.004 Y45.429 E630.75489
G1 X85.460 Y42.754 E630.84688
G1 X94.975 Y42.754 E631.13027
G1 X94.975 Y52.270 E631.41369
G1 X92.300 Y50.726 E631.50568
G1 X92.300 Y62.417 E631.85387
G1 X93.050 Y62.850 E631.87967
G1 X94.975 Y61.738 E631.94588
G0 F10500 X93.224 Y62.575
G0 X93.050 Y62.273
;TYPE:WALL-OUTER
G1 F1080 X95.475 Y60.872 E632.02929
G1 X95.475 Y74.754 E632.44274
G1 X65.976 Y74.754 E633.32132
G1 X65.976 Y60.872 E633.73478
G1 X68.401 Y62.273 E633.81819
G1 X68.651 Y62.128 E633.82679
G1 X68.651 Y51.592 E634.14059
G1 X65.976 Y53.136 E634.23258
G1 X65.976 Y42.254 E634.55668
G1 X76.857 Y42.254 E634.88076
G1 X75.313 Y44.929 E634.97275
G1 X86.138 Y44.929 E635.29515
G1 X84.594 Y42.254 E635.38714
G1 X95.475 Y42.254 E635.71121
G1 X95.475 Y53.136 E636.03532
G1 X92.800 Y51.592 E636.12731
G1 X92.800 Y62.128 E636.44110
G1 X93.050 Y62.273 E636.44971
G0 F10500 X92.932 Y62.984
;TYPE:SKIN
G1 F1380 X81.837 Y74.079 E636.91703
G0 F10500 X82.544 Y74.079
G1 F1380 X94.289 Y62.334 E637.41173
G0 F10500 X94.798 Y62.532
G1 F1380 X83.251 Y74.079 E637.89809
G0 F10500 X83.959 Y74.079
G1 F1380 X94.798 Y63.239 E638.35465
G0 F10500 X94.798 Y63.946
G1 F1380 X84.666 Y74.079 E638.78144
G0 F10500 X85.373 Y74.079
G1 F1380 X94.798 Y64.653 E639.17844
G0 F10500 X94.798 Y65.360
G1 F1380 X86.080 Y74.079 E639.54566
G0 F10500 X86.787 Y74.079
G1 F1380 X94.798 Y66.067 E639.88311
G0 F10500 X94.798 Y66.774
G1 F1380 X87.494 Y74.079 E640.19077
G0 F10500 X88.201 Y74.079
G1 F1380 X94.798 Y67.482 E640.46864
G0 F10500 X94.798 Y68.189
G1 F1380 X88.908 Y74.079 E640.71673
G0 F10500 X89.615 Y74.079
G1 F1380 X94.798 Y68.896 E640.93504
G0 F10500 X94.798 Y69.603
G1 F1380 X90.322 Y74.079 E641.12356
G0 F10500 X91.030 Y74.079
G1 F1380 X94.798 Y70.310 E641.28229
G0 F10500 X94.798 Y71.017
G1 F1380 X91.737 Y74.079 E641.41124
G0 F10500 X92.444 Y74.079
G1 F1380 X94.798 Y71.724 E641.51042
G0 F10500 X94.798 Y72.431
G1 F1380 X93.151 Y74.079 E641.57981
G0 F10500 X93.858 Y74.079
G1 F1380 X94.798 Y73.138 E641.61942
G0 F10500 X94.798 Y73.845
G1 F1380 X94.565 Y74.079 E641.62926
G0 F10500 X92.485 Y62.724
G1 F1380 X81.130 Y74.079 E642.10753
G0 F10500 X80.423 Y74.079
G1 F1380 X92.123 Y62.378 E642.60036
G0 F10500 X92.123 Y61.671
G1 F1380 X79.716 Y74.079 E643.12296
G0 F10500 X79.009 Y74.079
G1 F1380 X92.123 Y60.964 E643.67535
G0 F10500 X92.123 Y60.257
G1 F1380 X78.302 Y74.079 E644.25751
G0 F10500 X77.595 Y74.079
G1 F1380 X92.123 Y59.550 E644.86945
G0 F10500 X92.123 Y58.843
G1 F1380 X76.887 Y74.079 E645.51119
G0 F10500 X76.180 Y74.079
G1 F1380 X92.123 Y58.136 E646.18271
G0 F10500 X92.123 Y57.429
G1 F1380 X75.473 Y74.079 E646.88401
G0 F10500 X74.766 Y74.079
G1 F1380 X92.123 Y56.721 E647.61511
G0 F10500 X92.123 Y56.014
G1 F1380 X74.059 Y74.079 E648.37599
G0 F10500 X73.352 Y74.079
G1 F1380 X92.123 Y55.307 E649.16664
G0 F10500 X92.123 Y54.600
G1 F1380 X72.645 Y74.079 E649.98708
G0 F10500 X71.938 Y74.079
G1 F1380 X92.123 Y53.893 E650.83729
G0 F10500 X92.123 Y53.186
G1 F1380 X71.231 Y74.079 E651.71729
G0 F10500 X70.524 Y74.079
G1 F1380 X92.123 Y52.479 E652.62706
G0 F10500 X92.123 Y51.772
G1 F1380 X69.816 Y74.079 E653.56663
G0 F10500 X69.109 Y74.079
G1 F1380 X92.123 Y51.065 E654.53598
G0 F10500 X92.530 Y50.658
G1 F1380 X94.798 Y48.390 E654.63151
G0 F10500 X94.798 Y49.097
G1 F1380 X92.978 Y50.917 E654.70817
G0 F10500 X93.427 Y51.176
G1 F1380 X94.798 Y49.804 E654.76594
G0 F10500 X94.798 Y50.511
G1 F1380 X93.876 Y51.434 E654.80479
G0 F10500 X94.324 Y51.693
G1 F1380 X94.798 Y51.218 E654.82478
G0 F10500 X94.798 Y47.683
G1 F1380 X68.402 Y74.079 E655.93658
G0 F10500 X67.695 Y74.079
G1 F1380 X94.798 Y46.975 E657.07818
G0 F10500 X94.798 Y46.268
G1 F1380 X66.988 Y74.079 E658.24956
G0 F10500 X66.651 Y73.709
G1 F1380 X94.798 Y45.561 E659.43513
G0 F10500 X94.798 Y44.854
G1 F1380 X66.651 Y73.002 E660.62071
G0 F10500 X66.651 Y72.295
G1 F1380 X94.798 Y44.147 E661.80628
G0 F10500 X94.798 Y43.440
G1 F1380 X66.651 Y71.588 E662.99186
G0 F10500 X66.651 Y70.881
G1 F1380 X94.603 Y42.928 E664.16922
G0 F10500 X93.896 Y42.928
G1 F1380 X66.651 Y70.173 E665.31678
G0 F10500 X66.651 Y69.466
G1 F1380 X93.189 Y42.928 E666.43456
G0 F10500 X92.482 Y42.928
G1 F1380 X66.651 Y68.759 E667.52257
G0 F10500 X66.651 Y68.052
G1 F1380 X91.775 Y42.928 E668.58079
G0 F10500 X91.068 Y42.928
G1 F1380 X66.651 Y67.345 E669.60924
G0 F10500 X66.651 Y66.638
G1 F1380 X90.361 Y42.928 E670.60790
G0 F10500 X89.654 Y42.928
G1 F1380 X87.186 Y45.395 E670.71183
G0 F10500 X86.978 Y45.604
G1 F1380 X66.651 Y65.931 E671.56801
G0 F10500 X66.651 Y65.224
G1 F1380 X86.271 Y45.604 E672.39440
G0 F10500 X85.564 Y45.604
G1 F1380 X69.325 Y61.842 E673.07837
G0 F10500 X69.325 Y61.135
G1 F1380 X84.857 Y45.604 E673.73256
G0 F10500 X84.149 Y45.604
G1 F1380 X69.325 Y60.428 E674.35695
G0 F10500 X69.074 Y62.373
G0 X68.401 Y62.761
G0 X67.772 Y62.688
G1 F1380 X66.651 Y63.810 E674.40418
G0 F10500 X66.651 Y64.517
G1 F1380 X68.220 Y62.947 E674.47029
G0 F10500 X67.324 Y62.429
G1 F1380 X66.651 Y62.748 E674.49864
G1 X66.876 Y62.170 E674.51711
G0 F10500 X68.401 Y62.761
G0 X69.074 Y62.373
G0 X69.325 Y59.721
G1 F1380 X83.442 Y45.604 E675.11172
G0 F10500 X82.735 Y45.604
G1 F1380 X69.325 Y59.014 E675.67655
G0 F10500 X69.325 Y58.307
G1 F1380 X82.028 Y45.604 E676.21160
G0 F10500 X81.321 Y45.604
G1 F1380 X69.325 Y57.600 E676.71688
G0 F10500 X69.325 Y56.893
G1 F1380 X80.614 Y45.604 E677.19237
G0 F10500 X86.744 Y45.279
G0 X85.892 Y43.154
G1 F1380 X86.134 Y43.265 E677.20187
G1 X86.825 Y42.928 E677.22477
G0 F10500 X87.532 Y42.928
G1 F1380 X86.410 Y44.050 E677.27202
G0 F10500 X86.669 Y44.498
G1 F1380 X88.239 Y42.928 E677.33815
G0 F10500 X88.946 Y42.928
G1 F1380 X86.928 Y44.947 E677.42317
G0 F10500 X86.744 Y45.279
G0 X79.907 Y45.604
G1 F1380 X69.325 Y56.185 E677.86887
G0 F10500 X69.325 Y55.478
G1 F1380 X79.200 Y45.604 E678.28478
G0 F10500 X78.493 Y45.604
G1 F1380 X69.325 Y54.771 E678.67092
G0 F10500 X69.325 Y54.064
G1 F1380 X77.785 Y45.604 E679.02725
G0 F10500 X77.078 Y45.604
G1 F1380 X69.325 Y53.357 E679.35381
G0 F10500 X69.325 Y52.650
G1 F1380 X76.371 Y45.604 E679.65059
G0 F10500 X75.664 Y45.604
G1 F1380 X69.325 Y51.943 E679.91759
G0 F10500 X69.325 Y51.236
G1 F1380 X74.957 Y45.604 E680.15481
G0 F10500 X74.250 Y45.604
G1 F1380 X69.325 Y50.529 E680.36225
G0 F10500 X67.904 Y51.243
G1 F1380 X74.961 Y44.186 E680.65949
G0 F10500 X74.804 Y42.928
G1 F1380 X66.650 Y51.082 E681.00293
G0 F10500 X66.650 Y51.789
G1 F1380 X75.511 Y42.928 E681.37616
G0 F10500 X74.097 Y42.928
G1 F1380 X66.650 Y50.375 E681.68983
G0 F10500 X66.650 Y49.668
G1 F1380 X73.390 Y42.928 E681.97372
G0 F10500 X72.683 Y42.928
G1 F1380 X66.650 Y48.961 E682.22783
G0 F10500 X66.650 Y48.254
G1 F1380 X71.976 Y42.928 E682.45216
G0 F10500 X71.269 Y42.928
G1 F1380 X66.650 Y47.547 E682.64671
G0 F10500 X66.650 Y46.840
G1 F1380 X70.562 Y42.928 E682.81149
G0 F10500 X69.855 Y42.928
G1 F1380 X66.650 Y46.133 E682.94648
G0 F10500 X66.650 Y45.425
G1 F1380 X69.147 Y42.928 E683.05165
G0 F10500 X68.440 Y42.928
G1 F1380 X66.650 Y44.718 E683.12705
G0 F10500 X66.650 Y44.011
G1 F1380 X67.733 Y42.928 E683.17267
G0 F10500 X67.026 Y42.928
G1 F1380 X66.650 Y43.304 E683.18850
G1 F600 E681.68850
G1 Z0.905
G0 F10500 X62.832 Y44.102
;TYPE:WALL-INNER
G1 Z0.805
G1 F600 E683.18850
G1 F1140 X62.832 Y53.617 E683.47189
G1 X60.157 Y52.073 E683.56388
G1 X60.157 Y64.630 E683.93787
G1 X62.832 Y63.086 E684.02986
G1 X62.832 Y72.602 E684.31328
G1 X53.316 Y72.602 E684.59670
G1 X54.860 Y69.927 E684.68869
G1 X42.303 Y69.927 E685.06268
G1 X43.847 Y72.602 E685.15467
G1 X31.332 Y72.602 E685.52741
G1 X31.332 Y44.102 E686.37623
G1 X43.847 Y44.102 E686.74897
G1 X42.303 Y46.777 E686.84096
G1 X54.860 Y46.777 E687.21495
G1 X53.316 Y44.102 E687.30694
G1 X62.832 Y44.102 E687.59036
G0 F10500 X63.332 Y43.602
;TYPE:WALL-OUTER
G1 F1080 X63.332 Y54.483 E687.91443
G1 X60.657 Y52.939 E688.00642
G1 X60.657 Y63.764 E688.32883
G1 X63.332 Y62.220 E688.42082
G1 X63.332 Y73.102 E688.74492
G1 X52.450 Y73.102 E689.06902
G1 X53.994 Y70.427 E689.16101
G1 X43.169 Y70.427 E689.48342
G1 X44.713 Y73.102 E689.57541
G1 X30.832 Y73.102 E689.98883
G1 X30.832 Y43.602 E690.86744
G1 X44.713 Y43.602 E691.28086
G1 X43.169 Y46.277 E691.37285
G1 X53.994 Y46.277 E691.69526
G1 X52.450 Y43.602 E691.78725
G1 X63.332 Y43.602 E692.11135
G0 F10500 X62.656 Y44.470
;TYPE:SKIN
G1 F1380 X34.700 Y72.426 E693.28886
G0 F10500 X35.407 Y72.426
G1 F1380 X62.656 Y45.177 E694.43659
G0 F10500 X62.656 Y45.884
G1 F1380 X36.114 Y72.426 E695.55454
G0 F10500 X36.821 Y72.426
G1 F1380 X62.656 Y46.591 E696.64271
G0 F10500 X62.656 Y47.299
G1 F1380 X37.528 Y72.426 E697.70108
G0 F10500 X38.236 Y72.426
G1 F1380 X62.656 Y48.006 E698.72965
G0 F10500 X62.656 Y48.713
G1 F1380 X38.943 Y72.426 E699.72845
G0 F10500 X39.650 Y72.426
G1 F1380 X42.118 Y69.957 E699.83242
G0 F10500 X42.325 Y69.751
G1 F1380 X59.981 Y52.095 E700.57609
G0 F10500 X59.981 Y52.802
G1 F1380 X43.032 Y69.751 E701.28998
G0 F10500 X43.739 Y69.751
G1 F1380 X59.981 Y53.509 E701.97410
G0 F10500 X59.981 Y54.216
G1 F1380 X44.446 Y69.751 E702.62843
G0 F10500 X45.153 Y69.751
G1 F1380 X59.981 Y54.923 E703.25299
G0 F10500 X59.981 Y55.630
G1 F1380 X45.860 Y69.751 E703.84777
G0 F10500 X46.567 Y69.751
G1 F1380 X59.981 Y56.338 E704.41274
G0 F10500 X59.981 Y57.045
G1 F1380 X47.275 Y69.751 E704.94792
G0 F10500 X47.982 Y69.751
G1 F1380 X59.981 Y57.752 E705.45332
G0 F10500 X59.981 Y58.458
G1 F1380 X48.689 Y69.751 E705.92896
G0 F10500 X49.396 Y69.751
G1 F1380 X59.981 Y59.165 E706.37482
G0 F10500 X59.981 Y59.872
G1 F1380 X50.103 Y69.751 E706.79091
G0 F10500 X50.810 Y69.751
G1 F1380 X59.981 Y60.579 E707.17721
G0 F10500 X59.981 Y61.287
G1 F1380 X51.517 Y69.751 E707.53371
G0 F10500 X52.224 Y69.751
G1 F1380 X59.981 Y61.994 E707.86044
G0 F10500 X59.981 Y62.701
G1 F1380 X52.931 Y69.751 E708.15739
G0 F10500 X53.638 Y69.751
G1 F1380 X59.981 Y63.408 E708.42455
G0 F10500 X59.981 Y64.115
G1 F1380 X54.346 Y69.751 E708.66192
G0 F10500 X55.053 Y69.751
G1 F1380 X59.981 Y64.822 E708.86951
G0 F10500 X61.395 Y64.116
G1 F1380 X54.347 Y71.163 E709.16635
G0 F10500 X54.499 Y72.426
G1 F1380 X62.656 Y64.268 E709.50995
G0 F10500 X62.656 Y63.561
G1 F1380 X53.792 Y72.426 E709.88332
G0 F10500 X55.206 Y72.426
G1 F1380 X62.656 Y64.976 E710.19711
G0 F10500 X62.656 Y65.683
G1 F1380 X55.913 Y72.426 E710.48113
G0 F10500 X56.620 Y72.426
G1 F1380 X62.656 Y66.390 E710.73537
G0 F10500 X62.656 Y67.097
G1 F1380 X57.327 Y72.426 E710.95982
G0 F10500 X58.035 Y72.426
G1 F1380 X62.656 Y67.804 E711.15448
G0 F10500 X62.656 Y68.511
G1 F1380 X58.742 Y72.426 E711.31936
G0 F10500 X59.449 Y72.426
G1 F1380 X62.656 Y69.218 E711.45446
G0 F10500 X62.656 Y69.925
G1 F1380 X60.156 Y72.426 E711.55978
G0 F10500 X60.863 Y72.426
G1 F1380 X62.656 Y70.632 E711.63532
G0 F10500 X62.656 Y71.340
G1 F1380 X61.570 Y72.426 E711.68107
G0 F10500 X62.277 Y72.426
G1 F1380 X62.656 Y72.047 E711.69703
G0 F10500 X60.307 Y64.370
G0 X60.307 Y52.333
G0 X62.429 Y53.182
G1 F1380 X62.318 Y52.939 E711.70659
G1 X62.656 Y52.248 E711.72950
G0 F10500 X62.656 Y51.541
G1 F1380 X61.531 Y52.666 E711.77689
G0 F10500 X61.083 Y52.407
G1 F1380 X62.656 Y50.834 E711.84314
G0 F10500 X62.656 Y50.127
G1 F1380 X60.635 Y52.148 E711.92827
G0 F10500 X60.186 Y51.889
G1 F1380 X62.656 Y49.420 E712.03228
G0 F10500 X62.142 Y44.276
G1 F1380 X33.993 Y72.426 E713.21794
G0 F10500 X33.286 Y72.426
G1 F1380 X61.435 Y44.276 E714.40360
G0 F10500 X60.728 Y44.276
G1 F1380 X32.579 Y72.426 E715.58926
G0 F10500 X31.872 Y72.426
G1 F1380 X60.021 Y44.276 E716.77492
G0 F10500 X59.314 Y44.276
G1 F1380 X31.507 Y72.083 E717.94615
G0 F10500 X31.507 Y71.376
G1 F1380 X58.607 Y44.276 E719.08760
G0 F10500 X57.900 Y44.276
G1 F1380 X31.507 Y70.669 E720.19928
G0 F10500 X31.507 Y69.962
G1 F1380 X54.518 Y46.951 E721.16850
G0 F10500 X54.927 Y46.542
G1 F1380 X57.192 Y44.276 E721.26393
G0 F10500 X56.485 Y44.276
G1 F1380 X54.667 Y46.094 E721.34050
G0 F10500 X54.409 Y45.646
G1 F1380 X55.778 Y44.276 E721.39819
G0 F10500 X55.071 Y44.276
G1 F1380 X54.150 Y45.198 E721.43700
G0 F10500 X53.891 Y44.749
G1 F1380 X54.364 Y44.276 E721.45692
G0 F10500 X54.600 Y46.627
G0 X53.811 Y46.951
G1 F1380 X31.507 Y69.255 E722.39637
G0 F10500 X31.507 Y68.548
G1 F1380 X53.104 Y46.951 E723.30603
G0 F10500 X52.397 Y46.951
G1 F1380 X31.507 Y67.841 E724.18592
G0 F10500 X31.507 Y67.134
G1 F1380 X51.690 Y46.951 E725.03603
G0 F10500 X50.983 Y46.951
G1 F1380 X31.507 Y66.427 E725.85636
G0 F10500 X31.507 Y65.719
G1 F1380 X50.275 Y46.951 E726.64687
G0 F10500 X49.568 Y46.951
G1 F1380 X31.507 Y65.012 E727.40760
G0 F10500 X31.507 Y64.305
G1 F1380 X48.861 Y46.951 E728.13855
G0 F10500 X48.154 Y46.951
G1 F1380 X31.507 Y63.598 E728.83973
G0 F10500 X31.507 Y62.891
G1 F1380 X47.447 Y46.951 E729.51112
G0 F10500 X46.740 Y46.951
G1 F1380 X31.507 Y62.184 E730.15273
G0 F10500 X31.507 Y61.477
G1 F1380 X46.033 Y46.951 E730.76457
G0 F10500 X45.326 Y46.951
G1 F1380 X31.507 Y60.770 E731.34663
G0 F10500 X31.507 Y60.063
G1 F1380 X44.619 Y46.951 E731.89891
G0 F10500 X43.912 Y46.951
G1 F1380 X31.507 Y59.355 E732.42138
G0 F10500 X31.507 Y58.648
G1 F1380 X43.204 Y46.951 E732.91406
G0 F10500 X42.497 Y46.951
G1 F1380 X31.507 Y57.941 E733.37696
G0 F10500 X31.507 Y57.234
G1 F1380 X42.284 Y46.456 E733.83091
G0 F10500 X43.250 Y44.784
G1 F1380 X31.507 Y56.527 E734.32553
G0 F10500 X31.507 Y55.820
G1 F1380 X43.051 Y44.276 E734.81176
G0 F10500 X42.344 Y44.276
G1 F1380 X31.507 Y55.113 E735.26822
G0 F10500 X31.507 Y54.406
G1 F1380 X41.637 Y44.276 E735.69489
G0 F10500 X40.930 Y44.276
G1 F1380 X31.507 Y53.699 E736.09179
G0 F10500 X31.507 Y52.991
G1 F1380 X40.223 Y44.276 E736.45889
G0 F10500 X39.515 Y44.276
G1 F1380 X31.507 Y52.284 E736.79618
G0 F10500 X31.507 Y51.577
G1 F1380 X38.808 Y44.276 E737.10370
G0 F10500 X38.101 Y44.276
G1 F1380 X31.507 Y50.870 E737.38144
G0 F10500 X31.507 Y50.163
G1 F1380 X37.394 Y44.276 E737.62940
G0 F10500 X36.687 Y44.276
G1 F1380 X31.507 Y49.456 E737.84759
G0 F10500 X31.507 Y48.749
G1 F1380 X35.980 Y44.276 E738.03599
G0 F10500 X35.273 Y44.276
G1 F1380 X31.507 Y48.042 E738.19461
G0 F10500 X31.507 Y47.335
G1 F1380 X34.566 Y44.276 E738.32346
G0 F10500 X33.859 Y44.276
G1 F1380 X31.507 Y46.628 E738.42252
G0 F10500 X31.507 Y45.920
G1 F1380 X33.151 Y44.276 E738.49177
G0 F10500 X32.444 Y44.276
G1 F1380 X31.507 Y45.213 E738.53124
G0 F10500 X31.507 Y44.506
G1 F1380 X31.737 Y44.276 E738.54092
G0 F10500 X42.377 Y70.405
G1 F1380 X40.357 Y72.426 E738.62603
G0 F10500 X41.064 Y72.426
G1 F1380 X42.636 Y70.854 E738.69224
G0 F10500 X42.895 Y71.302
G1 F1380 X41.771 Y72.426 E738.73958
G0 F10500 X42.478 Y72.426
G1 F1380 X43.282 Y71.975 E738.76797
G1 X43.185 Y72.426 E738.78171
;LAYER:2
G1 F600 E737.28171
G1 Z0.905
G0 F10500 X43.249 Y39.107 Z1.185
;TYPE:WALL-INNER
G1 Z1.185
G1 F600 E738.78171
G1 F1440 X30.734 Y39.107 E739.15445
G1 X30.734 Y9.891 E740.02460
G1 X30.773 Y9.456 E740.03761
G1 X30.881 Y9.065 E740.04969
G1 X31.060 Y8.693 E740.06199
G1 X31.155 Y8.550 E740.06710
G1 X31.446 Y8.217 E740.08027
G1 X31.568 Y8.110 E740.08510
G1 X31.932 Y7.869 E740.09811
G1 X32.358 Y7.699 E740.11177
G1 X32.471 Y7.668 E740.11526
G1 X32.897 Y7.610 E740.12806
G1 X62.234 Y7.607 E741.00182
G1 X62.234 Y20.122 E741.37456
G1 X59.559 Y18.578 E741.46655
G1 X59.559 Y31.135 E741.84053
G1 X62.234 Y29.591 E741.93252
G1 X62.234 Y39.107 E742.21594
G1 X52.719 Y39.107 E742.49933
G1 X54.263 Y36.432 E742.59132
G1 X41.705 Y36.432 E742.96534
G1 X43.249 Y39.107 E743.05733
G0 F10500 X42.268 Y37.106
G0 X42.571 Y36.932
;TYPE:WALL-OUTER
G1 F1320 X44.115 Y39.607 E743.14932
G1 X30.234 Y39.607 E743.56274
G1 X30.234 Y9.868 E744.44847
G1 X30.279 Y9.367 E744.46345
G1 X30.410 Y8.891 E744.47816
G1 X30.627 Y8.441 E744.49304
G1 X30.755 Y8.246 E744.49998
G1 X31.091 Y7.862 E744.51518
G1 X31.260 Y7.715 E744.52185
G1 X31.691 Y7.430 E744.53724
G1 X31.898 Y7.330 E744.54409
G1 X32.369 Y7.177 E744.55884
G1 X32.867 Y7.110 E744.57380
G1 X62.734 Y7.107 E745.46334
G1 X62.734 Y20.988 E745.87677
G1 X60.059 Y19.444 E745.96876
G1 X60.059 Y30.269 E746.29116
G1 X62.734 Y28.725 E746.38315
G1 X62.734 Y39.607 E746.70725
G1 X51.853 Y39.607 E747.03133
G1 X53.397 Y36.932 E747.12332
G1 X42.571 Y36.932 E747.44575
G0 F10500 X42.267 Y36.256
;TYPE:SKIN
G1 F1920 X30.908 Y24.897 E747.92419
G0 F10500 X30.908 Y24.190
G1 F1920 X42.974 Y36.256 E748.43241
G0 F10500 X43.681 Y36.256
G1 F1920 X30.908 Y23.483 E748.97041
G0 F10500 X30.908 Y22.776
G1 F1920 X44.388 Y36.256 E749.53819
G0 F10500 X45.095 Y36.256
G1 F1920 X30.908 Y22.069 E750.13575
G0 F10500 X30.908 Y21.362
G1 F1920 X45.802 Y36.256 E750.76308
G0 F10500 X46.509 Y36.256
G1 F1920 X30.908 Y20.655 E751.42020
G0 F10500 X30.908 Y25.605
G1 F1920 X41.560 Y36.256 E751.86884
G0 F10500 X42.150 Y37.554
G1 F1920 X30.908 Y26.312 E752.34235
G0 F10500 X30.908 Y27.019
G1 F1920 X42.820 Y38.931 E752.84409
G0 F10500 X42.113 Y38.931
G1 F1920 X30.908 Y27.726 E753.31604
G0 F10500 X30.908 Y28.433
G1 F1920 X41.406 Y38.931 E753.75822
G0 F10500 X40.699 Y38.931
G1 F1920 X30.908 Y29.140 E754.17062
G0 F10500 X30.908 Y29.847
G1 F1920 X39.992 Y38.931 E754.55324
G0 F10500 X39.285 Y38.931
G1 F1920 X30.908 Y30.554 E754.90608
G0 F10500 X30.908 Y31.261
G1 F1920 X38.578 Y38.931 E755.22914
G0 F10500 X37.871 Y38.931
G1 F1920 X30.908 Y31.969 E755.52240
G0 F10500 X30.908 Y32.676
G1 F1920 X37.164 Y38.931 E755.78588
G0 F10500 X36.457 Y38.931
G1 F1920 X30.908 Y33.383 E756.01958
G0 F10500 X30.908 Y34.090
G1 F1920 X35.749 Y38.931 E756.22349
G0 F10500 X35.042 Y38.931
G1 F1920 X30.908 Y34.797 E756.39761
G0 F10500 X30.908 Y35.504
G1 F1920 X34.335 Y38.931 E756.54196
G0 F10500 X33.628 Y38.931
G1 F1920 X30.908 Y36.211 E756.65652
G0 F10500 X30.908 Y36.918
G1 F1920 X32.921 Y38.931 E756.74131
G0 F10500 X32.214 Y38.931
G1 F1920 X30.908 Y37.625 E756.79632
G0 F10500 X30.908 Y38.332
G1 F1920 X31.507 Y38.931 E756.82155
G0 F10500 X41.965 Y36.582
G0 X47.217 Y36.256
G1 F1920 X30.908 Y19.948 E757.50846
G0 F10500 X30.908 Y19.241
G1 F1920 X47.924 Y36.256 E758.22516
G0 F10500 X48.631 Y36.256
G1 F1920 X30.908 Y18.533 E758.97165
G0 F10500 X30.908 Y17.826
G1 F1920 X49.338 Y36.256 E759.74793
G0 F10500 X50.045 Y36.256
G1 F1920 X30.908 Y17.119 E760.55398
G0 F10500 X30.908 Y16.412
G1 F1920 X50.752 Y36.256 E761.38981
G0 F10500 X51.459 Y36.256
G1 F1920 X30.908 Y15.705 E762.25542
G0 F10500 X30.908 Y14.998
G1 F1920 X52.166 Y36.256 E763.15080
G0 F10500 X52.873 Y36.256
G1 F1920 X30.908 Y14.291 E764.07597
G0 F10500 X30.908 Y13.584
G1 F1920 X53.581 Y36.256 E765.03094
G0 F10500 X54.288 Y36.256
G1 F1920 X30.908 Y12.877 E766.01569
G0 F10500 X30.908 Y12.170
G1 F1920 X57.670 Y38.931 E767.14288
G0 F10500 X56.963 Y38.931
G1 F1920 X54.463 Y36.432 E767.24816
G0 F10500 X54.204 Y36.880
G1 F1920 X56.256 Y38.931 E767.33457
G0 F10500 X55.548 Y38.931
G1 F1920 X53.945 Y37.328 E767.40209
G0 F10500 X53.687 Y37.777
G1 F1920 X54.841 Y38.931 E767.45069
G0 F10500 X54.134 Y38.931
G1 F1920 X53.299 Y38.449 E767.48039
G1 X53.427 Y38.931 E767.49524
G0 F10500 X58.377 Y38.931
G1 F1920 X30.908 Y11.462 E768.65224
G0 F10500 X30.908 Y10.755
G1 F1920 X59.084 Y38.931 E769.83901
G0 F10500 X59.791 Y38.931
G1 F1920 X30.908 Y10.048 E771.05556
G0 F10500 X30.968 Y9.401
G1 F1920 X60.498 Y38.931 E772.29937
G0 F10500 X61.205 Y38.931
G1 F1920 X31.159 Y8.885 E773.56491
G0 F10500 X31.453 Y8.472
G1 F1920 X61.912 Y38.931 E774.84784
G0 F10500 X62.058 Y38.370
G1 F1920 X31.832 Y8.144 E776.12096
G0 F10500 X32.304 Y7.908
G1 F1920 X62.058 Y37.663 E777.37423
G0 F10500 X62.058 Y36.956
G1 F1920 X32.890 Y7.788 E778.60278
G0 F10500 X33.594 Y7.785
G1 F1920 X62.058 Y36.249 E779.80169
G0 F10500 X62.058 Y35.542
G1 F1920 X34.301 Y7.785 E780.97082
G0 F10500 X35.008 Y7.785
G1 F1920 X62.058 Y34.834 E782.11014
G0 F10500 X62.058 Y34.127
G1 F1920 X35.715 Y7.785 E783.21969
G0 F10500 X36.423 Y7.785
G1 F1920 X59.383 Y30.745 E784.18677
G0 F10500 X59.822 Y31.184
G1 F1920 X62.058 Y33.420 E784.28095
G0 F10500 X62.058 Y32.713
G1 F1920 X60.270 Y30.926 E784.35624
G0 F10500 X60.719 Y30.667
G1 F1920 X62.058 Y32.006 E784.41264
G0 F10500 X62.058 Y31.299
G1 F1920 X61.167 Y30.408 E784.45016
G0 F10500 X61.615 Y30.149
G1 F1920 X62.058 Y30.592 E784.46882
G0 F10500 X59.709 Y30.875
G0 X59.383 Y30.038
G1 F1920 X37.130 Y7.785 E785.40612
G0 F10500 X37.837 Y7.785
G1 F1920 X59.383 Y29.331 E786.31364
G0 F10500 X59.383 Y28.624
G1 F1920 X38.544 Y7.785 E787.19138
G0 F10500 X39.251 Y7.785
G1 F1920 X59.383 Y27.917 E788.03934
G0 F10500 X59.383 Y27.210
G1 F1920 X39.958 Y7.785 E788.85752
G0 F10500 X40.665 Y7.784
G1 F1920 X59.383 Y26.503 E789.64595
G0 F10500 X59.383 Y25.795
G1 F1920 X41.372 Y7.784 E790.40457
G0 F10500 X42.079 Y7.784
G1 F1920 X59.383 Y25.088 E791.13342
G0 F10500 X59.383 Y24.381
G1 F1920 X42.786 Y7.784 E791.83248
G0 F10500 X43.493 Y7.784
G1 F1920 X59.383 Y23.674 E792.50177
G0 F10500 X59.383 Y22.967
G1 F1920 X44.200 Y7.784 E793.14128
G0 F10500 X44.907 Y7.784
G1 F1920 X59.383 Y22.260 E793.75101
G0 F10500 X59.383 Y21.553
G1 F1920 X45.614 Y7.784 E794.33096
G0 F10500 X46.321 Y7.784
G1 F1920 X59.383 Y20.846 E794.88113
G0 F10500 X59.383 Y20.139
G1 F1920 X47.028 Y7.784 E795.40153
G0 F10500 X47.735 Y7.783
G1 F1920 X59.383 Y19.432 E795.89216
G0 F10500 X59.383 Y18.724
G1 F1920 X48.442 Y7.783 E796.35300
G0 F10500 X49.149 Y7.783
G1 F1920 X59.991 Y18.625 E796.80966
G0 F10500 X61.663 Y19.591
G1 F1920 X49.856 Y7.783 E797.30700
G0 F10500 X50.563 Y7.783
G1 F1920 X62.058 Y19.278 E797.79117
G0 F10500 X62.058 Y18.571
G1 F1920 X51.270 Y7.783 E798.24556
G0 F10500 X51.978 Y7.783
G1 F1920 X62.058 Y17.864 E798.67015
G0 F10500 X62.058 Y17.157
G1 F1920 X52.685 Y7.783 E799.06496
G0 F10500 X53.392 Y7.783
G1 F1920 X62.058 Y16.450 E799.43000
G0 F10500 X62.058 Y15.743
G1 F1920 X54.099 Y7.783 E799.76525
G0 F10500 X54.805 Y7.783
G1 F1920 X62.058 Y15.035 E800.07073
G0 F10500 X62.058 Y14.328
G1 F1920 X55.512 Y7.783 E800.34642
G0 F10500 X56.219 Y7.783
G1 F1920 X62.058 Y13.621 E800.59234
G0 F10500 X62.058 Y12.914
G1 F1920 X56.927 Y7.783 E800.80846
G0 F10500 X57.634 Y7.783
G1 F1920 X62.058 Y12.207 E800.99480
G0 F10500 X62.058 Y11.500
G1 F1920 X58.341 Y7.783 E801.15136
G0 F10500 X59.048 Y7.783
G1 F1920 X62.058 Y10.793 E801.27814
G0 F10500 X62.058 Y10.086
G1 F1920 X59.755 Y7.783 E801.37514
G0 F10500 X60.462 Y7.783
G1 F1920 X62.058 Y9.379 E801.44237
G0 F10500 X62.058 Y8.671
G1 F1920 X61.169 Y7.783 E801.47979
G0 F10500 X61.876 Y7.783
G1 F1920 X62.058 Y7.964 E801.48743
G1 F600 E799.98743
G1 Z1.285
G0 F10500 X66.413 Y8.839
;TYPE:WALL-INNER
G1 Z1.185
G1 F600 E801.48743
G1 F1440 X75.928 Y8.839 E801.77082
G1 X74.384 Y11.514 E801.86281
G1 X86.940 Y11.514 E802.23677
G1 X85.396 Y8.839 E802.32876
G1 X94.912 Y8.839 E802.61218
G1 X94.912 Y18.355 E802.89560
G1 X92.237 Y16.811 E802.98759
G1 X92.237 Y28.502 E803.33579
G1 X92.987 Y28.935 E803.36158
G1 X94.912 Y27.823 E803.42779
G1 X94.912 Y37.339 E803.71121
G1 X85.396 Y37.339 E803.99463
G1 X86.940 Y34.664 E804.08662
G1 X74.384 Y34.664 E804.46058
G1 X75.928 Y37.339 E804.55257
G1 X66.413 Y37.339 E804.83596
G1 X66.413 Y27.823 E805.11938
G1 X68.338 Y28.935 E805.18559
G1 X69.088 Y28.502 E805.21138
G1 X69.088 Y16.811 E805.55958
G1 X66.413 Y18.355 E805.65157
G1 X66.413 Y8.839 E805.93499
G0 F10500 X65.913 Y8.339
;TYPE:WALL-OUTER
G1 F1320 X76.794 Y8.339 E806.25906
G1 X75.250 Y11.014 E806.35105
G1 X86.074 Y11.014 E806.67342
G1 X84.530 Y8.339 E806.76541
G1 X95.412 Y8.339 E807.08952
G1 X95.412 Y19.221 E807.41362
G1 X92.737 Y17.677 E807.50561
G1 X92.737 Y28.213 E807.81941
G1 X92.987 Y28.358 E807.82801
G1 X95.412 Y26.957 E807.91142
G1 X95.412 Y37.839 E808.23553
G1 X84.530 Y37.839 E808.55963
G1 X86.074 Y35.164 E808.65162
G1 X75.250 Y35.164 E808.97399
G1 X76.794 Y37.839 E809.06598
G1 X65.913 Y37.839 E809.39006
G1 X65.913 Y26.957 E809.71416
G1 X68.338 Y28.358 E809.79757
G1 X68.588 Y28.213 E809.80618
G1 X68.588 Y17.677 E810.11998
G1 X65.913 Y19.221 E810.21197
G1 X65.913 Y8.339 E810.53607
G0 F10500 X66.643 Y9.014
;TYPE:SKIN
G1 F1920 X94.736 Y37.107 E811.71935
G0 F10500 X94.086 Y37.164
G1 F1920 X66.586 Y9.664 E812.87765
G0 F10500 X66.586 Y10.371
G1 F1920 X93.379 Y37.164 E814.00617
G0 F10500 X92.672 Y37.164
G1 F1920 X66.586 Y11.078 E815.10492
G0 F10500 X66.586 Y11.786
G1 F1920 X91.964 Y37.164 E816.17384
G0 F10500 X91.257 Y37.164
G1 F1920 X66.586 Y12.493 E817.21298
G0 F10500 X66.586 Y13.200
G1 F1920 X90.550 Y37.164 E818.22235
G0 F10500 X89.843 Y37.164
G1 F1920 X87.214 Y34.535 E818.33308
G0 F10500 X87.168 Y34.489
G1 F1920 X69.262 Y16.583 E819.08728
G0 F10500 X69.214 Y16.534
G1 F1920 X66.586 Y13.907 E819.19795
G0 F10500 X66.586 Y14.614
G1 F1920 X68.766 Y16.793 E819.28976
G0 F10500 X68.317 Y17.052
G1 F1920 X66.586 Y15.321 E819.36267
G0 F10500 X66.586 Y16.028
G1 F1920 X67.869 Y17.311 E819.41671
G0 F10500 X67.421 Y17.570
G1 F1920 X66.586 Y16.735 E819.45188
G0 F10500 X66.586 Y17.442
G1 F1920 X66.972 Y17.828 E819.46813
G0 F10500 X68.938 Y17.071
G0 X69.262 Y17.997
G1 F1920 X85.754 Y34.489 E820.16278
G0 F10500 X85.047 Y34.489
G1 F1920 X69.262 Y18.704 E820.82764
G0 F10500 X69.262 Y19.411
G1 F1920 X84.340 Y34.489 E821.46273
G0 F10500 X83.633 Y34.489
G1 F1920 X69.262 Y20.118 E822.06804
G0 F10500 X69.262 Y20.825
G1 F1920 X82.925 Y34.489 E822.64354
G0 F10500 X82.218 Y34.489
G1 F1920 X69.262 Y21.532 E823.18927
G0 F10500 X69.262 Y22.239
G1 F1920 X81.511 Y34.489 E823.70522
G0 F10500 X80.804 Y34.489
G1 F1920 X69.262 Y22.947 E824.19137
G0 F10500 X69.262 Y23.654
G1 F1920 X80.097 Y34.489 E824.64774
G0 F10500 X86.680 Y34.814
G0 X85.921 Y36.777
G1 F1920 X86.308 Y37.164 E824.66404
G0 F10500 X87.015 Y37.164
G1 F1920 X86.180 Y36.329 E824.69921
G0 F10500 X86.438 Y35.880
G1 F1920 X87.722 Y37.164 E824.75330
G0 F10500 X88.429 Y37.164
G1 F1920 X86.697 Y35.432 E824.82625
G0 F10500 X86.956 Y34.984
G1 F1920 X89.136 Y37.164 E824.91807
G0 F10500 X86.461 Y34.489
G1 F1920 X69.262 Y17.290 E825.64249
G0 F10500 X74.268 Y11.689
G1 F1920 X94.736 Y32.157 E826.50461
G0 F10500 X94.736 Y32.864
G1 F1920 X70.886 Y9.014 E827.50917
G0 F10500 X71.593 Y9.014
G1 F1920 X74.149 Y11.570 E827.61683
G0 F10500 X74.408 Y11.122
G1 F1920 X72.300 Y9.014 E827.70562
G0 F10500 X73.007 Y9.014
G1 F1920 X74.666 Y10.673 E827.77549
G0 F10500 X74.925 Y10.225
G1 F1920 X73.714 Y9.014 E827.82650
G0 F10500 X74.421 Y9.014
G1 F1920 X75.184 Y9.777 E827.85864
G0 F10500 X75.443 Y9.328
G1 F1920 X75.128 Y9.014 E827.87189
G0 F10500 X74.644 Y11.364
G0 X74.975 Y11.689
G1 F1920 X94.736 Y31.450 E828.70422
G0 F10500 X94.736 Y30.743
G1 F1920 X93.077 Y29.084 E828.77410
G0 F10500 X93.526 Y28.825
G1 F1920 X94.736 Y30.036 E828.82508
G0 F10500 X94.736 Y29.329
G1 F1920 X93.973 Y28.566 E828.85722
G0 F10500 X94.422 Y28.307
G1 F1920 X94.736 Y28.622 E828.87047
G0 F10500 X92.987 Y28.846
G0 X92.314 Y28.458
G0 X92.061 Y28.067
G1 F1920 X75.682 Y11.689 E829.56033
G0 F10500 X76.389 Y11.689
G1 F1920 X92.061 Y27.360 E830.22042
G0 F10500 X92.061 Y26.653
G1 F1920 X77.096 Y11.689 E830.85072
G0 F10500 X77.803 Y11.689
G1 F1920 X92.061 Y25.946 E831.45125
G0 F10500 X92.061 Y25.239
G1 F1920 X78.510 Y11.689 E832.02200
G0 F10500 X79.217 Y11.689
G1 F1920 X92.061 Y24.532 E832.56297
G0 F10500 X92.061 Y23.825
G1 F1920 X79.924 Y11.689 E833.07416
G0 F10500 X74.644 Y11.364
G0 X70.178 Y9.014
G1 F1920 X94.736 Y33.572 E834.10854
G0 F10500 X94.736 Y34.279
G1 F1920 X69.471 Y9.014 E835.17270
G0 F10500 X68.764 Y9.014
G1 F1920 X94.736 Y34.986 E836.26665
G0 F10500 X94.736 Y35.693
G1 F1920 X68.057 Y9.014 E837.39037
G0 F10500 X67.350 Y9.014
G1 F1920 X94.736 Y36.400 E838.54387
G0 F10500 X92.314 Y28.458
G0 X92.061 Y23.118
G1 F1920 X80.632 Y11.689 E839.02526
G0 F10500 X81.339 Y11.689
G1 F1920 X92.061 Y22.411 E839.47687
G0 F10500 X92.061 Y21.703
G1 F1920 X82.046 Y11.689 E839.89868
G0 F10500 X82.753 Y11.689
G1 F1920 X92.061 Y20.996 E840.29071
G0 F10500 X92.061 Y20.289
G1 F1920 X83.460 Y11.689 E840.65297
G0 F10500 X84.167 Y11.689
G1 F1920 X92.061 Y19.582 E840.98544
G0 F10500 X92.061 Y18.875
G1 F1920 X84.874 Y11.689 E841.28814
G0 F10500 X85.581 Y11.689
G1 F1920 X92.061 Y18.168 E841.56105
G0 F10500 X92.061 Y17.461
G1 F1920 X86.288 Y11.689 E841.80419
G0 F10500 X86.996 Y11.689
G1 F1920 X92.061 Y16.754 E842.01753
G0 F10500 X93.150 Y17.136
G1 F1920 X86.612 Y10.598 E842.29291
G0 F10500 X86.442 Y9.014
G1 F1920 X94.736 Y17.308 E842.64225
G0 F10500 X94.736 Y18.015
G1 F1920 X85.735 Y9.014 E843.02138
G0 F10500 X87.149 Y9.014
G1 F1920 X94.736 Y16.601 E843.34094
G0 F10500 X94.736 Y15.894
G1 F1920 X87.856 Y9.014 E843.63073
G0 F10500 X88.563 Y9.014
G1 F1920 X94.736 Y15.187 E843.89074
G0 F10500 X94.736 Y14.480
G1 F1920 X89.270 Y9.014 E844.12096
G0 F10500 X89.977 Y9.014
G1 F1920 X94.736 Y13.773 E844.32141
G0 F10500 X94.736 Y13.065
G1 F1920 X90.685 Y9.014 E844.49204
G0 F10500 X91.392 Y9.014
G1 F1920 X94.736 Y12.358 E844.63289
